!!!!SEGMENT: pl-cz--iii-560--001-007_raszek-waclaw--missa-in-d-et-resurrexit.krn
!!!cenid: 17xx:1053
!!!COM: Raszek, Wacław
!!!COM-rismid: pe30020314
!!!CDT: <1848->1848
!!!CNT:
!!!OPR: Missa in D
!!!OTL: Et resurrexit
!!!OMV: 007
!!!PDT:
!!!AGN: Sacred; Mass
!!!SMS-siglum: PL-CZ
!!!SMS-shelfmark: III-560
!!!SMS-shelfwork: 001-007 M
!!!SMS-variant:
!!!SMS-altvar:
!!!NIFC-rismid: 300001046
!!!URL-scan: http://repozytorium.nifc.pl/skany/pl-cz-nut--iii-560
!!!ONB-nifc: UWAGA: części Mszy: Kyrie, Gloria, Domine Deus, Cum Sancto spiritu, Credo, Et incarnatus, Et resurrexit, Sanctus, Pleni, Benedictus, Agnus Dei, Dona nobis
!!!key: D
**kern	**dynam	**kern	**dynam	**kern	**dynam	**kern	**dynam	**kern	**text	**dynam	**kern	**text	**dynam	**kern	**text	**dynam	**kern	**text	**dynam	**kern	**dynam	**kern	**dynam	**kern	**kern	**dynam
*	*	*group4	*	*group4	*	*group4	*	*group3	*	*	*group3	*	*	*group3	*	*	*group3	*	*	*group2	*	*group2	*	*group1	*group1	*
*part12	*part12	*part11	*part11	*part10	*part10	*part9	*part9	*part8	*part8	*part8	*part7	*part7	*part7	*part6	*part6	*part6	*part5	*part5	*part5	*part4	*part4	*part3	*part3	*part2	*part1	*
*staff12	*	*staff11	*	*staff10	*	*staff9	*	*staff8	*staff8	*	*staff7	*staff7	*	*staff6	*staff6	*	*staff5	*staff5	*	*staff4	*	*staff3	*	*staff2	*staff1	*
*I"Organo.	*	*I"Alto Viola Obligat	*	*I"Violino Secundo	*	*I"Violino Primo.	*	*I"Baſſo.	*	*	*I"Tenore.	*	*	*I"Alto.	*	*	*I"Canto.	*	*	*I"Corno 2do in D#	*	*I"Corno 1mo in D#	*	*I"Oboe Secondo	*I"Oboe Primo	*
*I'org	*	*I'vla	*	*I'vl 2	*	*I'vl 1	*	*I'B	*	*	*I'T	*	*	*I'A	*	*	*I'S	*	*	*I'cor 2 in D#	*	*I'cor 1 in D#	*	*I'ob 2	*I'ob 1	*
*Iorgan	*	*Iviola	*	*Ivioln	*	*Ivioln	*	*Ibass	*	*	*Itenor	*	*	*Ialto	*	*	*Isoprn	*	*	*Icor	*	*Icor	*	*Ioboe	*Ioboe	*
*ICklav	*	*ICstr	*	*ICstr	*	*ICstr	*	*ICvox	*	*	*ICvox	*	*	*ICvox	*	*	*ICvox	*	*	*ICbras	*	*ICbras	*	*ICww	*ICww	*
*clefF4	*	*clefC3	*	*clefG2	*	*clefG2	*	*clefF4	*	*	*clefC4	*	*	*clefC3	*	*	*clefC1	*	*	*clefG2	*	*clefG2	*	*clefG2	*clefG2	*
*	*	*	*	*	*	*	*	*	*	*	*	*	*	*	*	*	*	*	*	*ITrd6c10	*	*ITrd6c10	*	*	*	*
*k[f#c#]	*	*k[f#c#]	*	*k[f#c#]	*	*k[f#c#]	*	*k[f#c#]	*	*	*k[f#c#]	*	*	*k[f#c#]	*	*	*k[f#c#]	*	*	*k[f#c#]	*	*k[f#c#]	*	*k[f#c#]	*k[f#c#]	*
*D:	*	*D:	*	*D:	*	*D:	*	*D:	*	*	*D:	*	*	*D:	*	*	*D:	*	*	*	*	*	*	*D:	*D:	*
*M3/4	*	*M3/4	*	*M3/4	*	*M3/4	*	*M3/4	*	*	*M3/4	*	*	*M3/4	*	*	*M3/4	*	*	*M3/4	*	*M3/4	*	*M3/4	*M3/4	*
*all\left or middle	*	*	*	*all\middle	*	*all\left or middle	*	*all\left or middle	*	*	*all\left or middle	*	*	*all\left or middle	*	*	*all\left or middle	*	*	*all\middle	*	*all\right	*	*all\right	*all\left or middle	*
*2\right	*	*2\right	*	*2\right	*	*2\right	*	*2\right	*	*	*2\right	*	*	*2\right	*	*	*2\right	*	*	*2\right	*	*2\right	*	*2\right	*2\right	*
=1	=1	=1	=1	=1	=1	=1	=1	=1	=1	=1	=1	=1	=1	=1	=1	=1	=1	=1	=1	=1	=1	=1	=1	=1	=1	=1
!LO:TX:a:i:t=Tutti	!	!	!	!	!	!	!	!	!	!	!	!	!	!	!	!	!	!	!	!	!	!LO:TX:a:i:t=allo	!	!	!	!
!LO:TX:a:i:t=Allo	!	!LO:TX:a:i:t=allo.	!	!LO:TX:a:i:t=Allo.	!	!LO:TX:a:i:t=Allegro.	!	!	!	!	!	!	!	!	!	!	!	!	!	!LO:TX:t=P:problem:partia in D	!	!	!	!LO:TX:a:i:t=allo	!LO:TX:a:i:t=allo	!
!	!	!	!LO:DY:a:t=for	!	!	!	!	!LO:TX:a:i:t=Allo	!	!	!LO:TX:a:i:t=Allo&colon;	!	!LO:DY:a:t=for	!LO:TX:a:i:t=Allo.	!	!	!LO:TX:a:i:t=Allo	!	!LO:DY:a:t=for&colon;	!	!	!LO:TX:t=P:problem:partia in D	!	!	!	!LO:DY:a:t=for&colon;
!	!	!	!	!	!	!	!	!	!	!	!	!	!	!	!	!	!LO:TX:t=P:problem:kolejność znaków:f#cc#	!	!	!	!LO:DY:b:t=for&colon;	!	!	!	!	!
!	!	!	!	!	!	!	!LO:DY:b:t=for	!	!	!	!	!	!	!	!	!	!	!	!	!	!	!	!	!	!	!
!	!	!	!	!	!LO:DY:b:t=for	!	!	!	!	!	!	!	!	!	!	!	!	!	!	!	!	!	!	!	!	!
4D\	.	4d\	f	4f# 4A/	f	4dd 4f#\	f	4D\	Et	.	4A\	Et	f	4f#\	Et	.	4dd\	Et	f	4d\	f	4f#\	.	4f#/	4dd\	f
4F#\	.	4f#\	.	4f# 4A/	.	4dd 4f#\	.	4F#\	re-	.	4A\	re-	.	4f#\	Re-	.	4dd\	Re-	.	4d\	.	4f#\	.	4f#/	4dd\	.
!	!	!	!	!	!	!	!	!	!	!	!	!	!	!	!	!	!	!	!	!	!	!	!LO:DY:a:t=for&colon;	!	!	!
4A\	.	4a\	.	4f# 4A/	.	4dd 4f#\	.	4A\	-sur-	.	4A\	-sur-	.	4f#\	-ſur-	.	4dd\	-sur-	.	4d\	.	4f#\	f	4f#/	4dd\	.
=2	=2	=2	=2	=2	=2	=2	=2	=2	=2	=2	=2	=2	=2	=2	=2	=2	=2	=2	=2	=2	=2	=2	=2	=2	=2	=2
!	!	!	!	!	!	!	!LO:DY:b:t=pia	!	!	!	!	!	!	!	!	!	!	!	!	!	!	!	!	!	!	!
!	!	!	!	!	!LO:DY:b:t=p&colon;	!	!	!	!	!	!	!	!	!	!	!	!	!	!	!	!	!	!	!	!	!
4d\	.	4dd\	.	4f#/	p	16dd\LL	p	4d\	-re-	.	4A\	-re-	.	4f#\	-re-	.	4dd\	-re-	.	4d\	.	4f#\	.	4f#/	4dd\	.
.	.	.	.	.	.	16ee\	.	.	.	.	.	.	.	.	.	.	.	.	.	.	.	.	.	.	.	.
.	.	.	.	.	.	16ff#\	.	.	.	.	.	.	.	.	.	.	.	.	.	.	.	.	.	.	.	.
.	.	.	.	.	.	16ee\JJ	.	.	.	.	.	.	.	.	.	.	.	.	.	.	.	.	.	.	.	.
*	*	*tremolo	*	*	*	*	*	*	*	*	*	*	*	*	*	*	*	*	*	*	*	*	*	*	*	*
!	!	!	!LO:DY:a	!	!	!	!	!	!	!	!	!	!	!	!	!	!	!	!	!	!	!	!	!	!	!
4D/	.	8d\L	p	8f#/L	.	8dd\L	.	4D/	-xit	.	4A\	-xit	.	4f#\	-xit	.	4dd\	-xit	.	4d\	.	4f#\	.	4f#/	4dd\	.
.	.	8d\	.	8b/	.	8dd\	.	.	.	.	.	.	.	.	.	.	.	.	.	.	.	.	.	.	.	.
4r	.	8d\	.	8a/	.	8cc#\	.	4r	.	.	4r	.	.	4r	.	.	4r	.	.	4r	.	4r	.	4r	4r	.
.	.	8d\J	.	8g/J	.	8b\J	.	.	.	.	.	.	.	.	.	.	.	.	.	.	.	.	.	.	.	.
!	!	!	!	!	!	!LO:LB:g=original	!	!	!	!	!	!	!	!	!	!	!	!	!	!	!	!	!	!	!	!
=3	=3	=3	=3	=3	=3	=3	=3	=3	=3	=3	=3	=3	=3	=3	=3	=3	=3	=3	=3	=3	=3	=3	=3	=3	=3	=3
!LO:TX:a:t=8	!	!	!	!	!	!	!	!	!	!	!	!	!	!	!	!	!	!	!	!LO:TX:a:t=8.	!	!LO:TX:a:t=8	!	!	!LO:TX:a:t=8.	!
2.r	.	8d\L	.	8g/L	.	8b\L	.	2.r	.	.	2.r	.	.	2.r	.	.	2.r	.	.	2.r	.	2.r	.	2.r	2.r	.
.	.	8d\	.	8f#/J	.	8a\J	.	.	.	.	.	.	.	.	.	.	.	.	.	.	.	.	.	.	.	.
.	.	8d\	.	4.f#/	.	4.a\	.	.	.	.	.	.	.	.	.	.	.	.	.	.	.	.	.	.	.	.
.	.	8d\	.	.	.	.	.	.	.	.	.	.	.	.	.	.	.	.	.	.	.	.	.	.	.	.
.	.	8d\	.	.	.	.	.	.	.	.	.	.	.	.	.	.	.	.	.	.	.	.	.	.	.	.
.	.	8d\J	.	8f#/	.	8a\	.	.	.	.	.	.	.	.	.	.	.	.	.	.	.	.	.	.	.	.
=4	=4	=4	=4	=4	=4	=4	=4	=4	=4	=4	=4	=4	=4	=4	=4	=4	=4	=4	=4	=4	=4	=4	=4	=4	=4	=4
2.r	.	8d\L	.	8f#/L	.	8a#X/L	.	2.r	.	.	2.r	.	.	2.r	.	.	2.r	.	.	2.r	.	2.r	.	2.r	2.r	.
.	.	8d\	.	8g/J	.	8b/J	.	.	.	.	.	.	.	.	.	.	.	.	.	.	.	.	.	.	.	.
.	.	8d\	.	4.g/	.	4.b\	.	.	.	.	.	.	.	.	.	.	.	.	.	.	.	.	.	.	.	.
.	.	8d\	.	.	.	.	.	.	.	.	.	.	.	.	.	.	.	.	.	.	.	.	.	.	.	.
.	.	8d\	.	.	.	.	.	.	.	.	.	.	.	.	.	.	.	.	.	.	.	.	.	.	.	.
.	.	8d\J	.	8e/	.	8cc#\	.	.	.	.	.	.	.	.	.	.	.	.	.	.	.	.	.	.	.	.
=5	=5	=5	=5	=5	=5	=5	=5	=5	=5	=5	=5	=5	=5	=5	=5	=5	=5	=5	=5	=5	=5	=5	=5	=5	=5	=5
2.r	.	8d\L	.	8g/L	.	8ee\L	.	2.r	.	.	2.r	.	.	2.r	.	.	2.r	.	.	2.r	.	2.r	.	2.r	2.r	.
.	.	8d\	.	8f#/J	.	8dd\J	.	.	.	.	.	.	.	.	.	.	.	.	.	.	.	.	.	.	.	.
.	.	8d\	.	4.f#/	.	4.dd\	.	.	.	.	.	.	.	.	.	.	.	.	.	.	.	.	.	.	.	.
.	.	8d\	.	.	.	.	.	.	.	.	.	.	.	.	.	.	.	.	.	.	.	.	.	.	.	.
.	.	8d\	.	.	.	.	.	.	.	.	.	.	.	.	.	.	.	.	.	.	.	.	.	.	.	.
.	.	8d\J	.	8f#/	.	8dd\	.	.	.	.	.	.	.	.	.	.	.	.	.	.	.	.	.	.	.	.
=6	=6	=6	=6	=6	=6	=6	=6	=6	=6	=6	=6	=6	=6	=6	=6	=6	=6	=6	=6	=6	=6	=6	=6	=6	=6	=6
2.r	.	8d\L	.	8e/L	.	8cc#\L	.	2.r	.	.	2.r	.	.	2.r	.	.	2.r	.	.	2.r	.	2.r	.	2.r	2.r	.
.	.	8d\	.	8g/J	.	8b\J	.	.	.	.	.	.	.	.	.	.	.	.	.	.	.	.	.	.	.	.
.	.	8d\	.	4.g/	.	4.b\	.	.	.	.	.	.	.	.	.	.	.	.	.	.	.	.	.	.	.	.
.	.	8d\	.	.	.	.	.	.	.	.	.	.	.	.	.	.	.	.	.	.	.	.	.	.	.	.
.	.	8d\	.	.	.	.	.	.	.	.	.	.	.	.	.	.	.	.	.	.	.	.	.	.	.	.
.	.	8d\J	.	8e/	.	8cc#\	.	.	.	.	.	.	.	.	.	.	.	.	.	.	.	.	.	.	.	.
=7	=7	=7	=7	=7	=7	=7	=7	=7	=7	=7	=7	=7	=7	=7	=7	=7	=7	=7	=7	=7	=7	=7	=7	=7	=7	=7
2.r	.	8d\L	.	8g/L	.	8ee\L	.	2.r	.	.	2.r	.	.	2.r	.	.	2.r	.	.	2.r	.	2.r	.	2.r	2.r	.
.	.	8d\	.	8f#/J	.	8dd\J	.	.	.	.	.	.	.	.	.	.	.	.	.	.	.	.	.	.	.	.
.	.	8d\	.	4.f#/	.	4.dd\	.	.	.	.	.	.	.	.	.	.	.	.	.	.	.	.	.	.	.	.
.	.	8d\	.	.	.	.	.	.	.	.	.	.	.	.	.	.	.	.	.	.	.	.	.	.	.	.
.	.	8d\	.	.	.	.	.	.	.	.	.	.	.	.	.	.	.	.	.	.	.	.	.	.	.	.
.	.	8d\J	.	8a/	.	8ff#\	.	.	.	.	.	.	.	.	.	.	.	.	.	.	.	.	.	.	.	.
*	*	*Xtremolo	*	*	*	*	*	*	*	*	*	*	*	*	*	*	*	*	*	*	*	*	*	*	*	*
!	!	!LO:LB:g=original	!	!LO:LB:g=original	!	!	!	!	!	!	!	!	!	!	!	!	!	!	!	!	!	!	!	!	!	!
=8	=8	=8	=8	=8	=8	=8	=8	=8	=8	=8	=8	=8	=8	=8	=8	=8	=8	=8	=8	=8	=8	=8	=8	=8	=8	=8
2.r	.	4e\	.	8a/	.	8aa\L	.	2.r	.	.	2.r	.	.	2.r	.	.	2.r	.	.	2.r	.	2.r	.	2.r	2.r	.
.	.	.	.	4a/	.	8gg\	.	.	.	.	.	.	.	.	.	.	.	.	.	.	.	.	.	.	.	.
.	.	4c#\	.	.	.	8ee\	.	.	.	.	.	.	.	.	.	.	.	.	.	.	.	.	.	.	.	.
.	.	.	.	4a/	.	8gg\	.	.	.	.	.	.	.	.	.	.	.	.	.	.	.	.	.	.	.	.
.	.	4d\	.	.	.	8ff#\	.	.	.	.	.	.	.	.	.	.	.	.	.	.	.	.	.	.	.	.
.	.	.	.	8a/	.	8aa\J	.	.	.	.	.	.	.	.	.	.	.	.	.	.	.	.	.	.	.	.
=9	=9	=9	=9	=9	=9	=9	=9	=9	=9	=9	=9	=9	=9	=9	=9	=9	=9	=9	=9	=9	=9	=9	=9	=9	=9	=9
2.r	.	4a\	.	8a/	.	8cc#\L	.	2.r	.	.	2.r	.	.	2.r	.	.	2.r	.	.	2.r	.	2.r	.	2.r	2.r	.
.	.	.	.	4a/	.	8ee\	.	.	.	.	.	.	.	.	.	.	.	.	.	.	.	.	.	.	.	.
.	.	4f#\	.	.	.	8dd\	.	.	.	.	.	.	.	.	.	.	.	.	.	.	.	.	.	.	.	.
.	.	.	.	4a/	.	8ff#\	.	.	.	.	.	.	.	.	.	.	.	.	.	.	.	.	.	.	.	.
.	.	4c#\	.	.	.	8ee\	.	.	.	.	.	.	.	.	.	.	.	.	.	.	.	.	.	.	.	.
.	.	.	.	8a/	.	8gg\J	.	.	.	.	.	.	.	.	.	.	.	.	.	.	.	.	.	.	.	.
!	!	!	!	!	!	!LO:LB:g=original	!	!	!	!	!	!	!	!	!	!	!	!	!	!	!	!	!	!	!	!
=10	=10	=10	=10	=10	=10	=10	=10	=10	=10	=10	=10	=10	=10	=10	=10	=10	=10	=10	=10	=10	=10	=10	=10	=10	=10	=10
2.r	.	4d\	.	4a/	.	8ff#\L	.	2.r	.	.	2.r	.	.	2.r	.	.	2.r	.	.	2.r	.	2.r	.	2.r	2.r	.
.	.	.	.	.	.	8ee\	.	.	.	.	.	.	.	.	.	.	.	.	.	.	.	.	.	.	.	.
.	.	4G/	.	8b/L	.	8gg\	.	.	.	.	.	.	.	.	.	.	.	.	.	.	.	.	.	.	.	.
.	.	.	.	8g/	.	8ee\	.	.	.	.	.	.	.	.	.	.	.	.	.	.	.	.	.	.	.	.
.	.	4A/	.	8f#/	.	8dd\	.	.	.	.	.	.	.	.	.	.	.	.	.	.	.	.	.	.	.	.
.	.	.	.	8e/J	.	8cc#\J	.	.	.	.	.	.	.	.	.	.	.	.	.	.	.	.	.	.	.	.
=11	=11	=11	=11	=11	=11	=11	=11	=11	=11	=11	=11	=11	=11	=11	=11	=11	=11	=11	=11	=11	=11	=11	=11	=11	=11	=11
!	!	!	!	!	!	!	!	!	!	!	!	!	!	!	!	!	!	!	!	!	!	!LO:TX:b:t=e:note=korekta	!	!	!	!
!	!	!	!LO:DY:a:t=for	!	!	!	!	!	!	!	!	!	!	!	!	!	!	!	!	!	!	!LO:TX:a:t=e:note=korekta	!	!	!	!
!	!	!	!	!	!	!	!LO:DY:b:t=for	!	!	!	!	!	!	!	!	!	!	!	!	!	!	!	!	!	!	!
!	!	!	!	!	!LO:DY:b:t=for	!	!	!	!	!	!	!	!	!	!	!	!	!	!	!	!	!	!	!	!	!
4D\	.	4d\	f	4f# 4A/	f	4dd 4f#\	f	4D\	Et	.	4A\	Et	.	4f#\	Et	.	4dd\	Et	.	4d\	.	4f#\	.	4dd\	4ff#\	.
!	!	!	!	!	!	!	!	!	!	!	!	!	!	!	!	!	!	!	!	!	!	!LO:TX:b:t=e:note=korekta	!	!	!	!
!	!	!	!	!	!	!	!	!	!	!	!	!	!	!	!	!	!	!	!	!	!	!LO:TX:a:t=e:note=korekta	!	!	!	!
4F#\	.	4f#\	.	4f# 4A/	.	4dd 4f#\	.	4F#\	re-	.	4A\	re-	.	4f#\	re-	.	4dd\	re-	.	4d\	.	4f#\	.	4dd\	4ff#\	.
!	!	!	!	!	!	!	!	!	!	!	!	!	!	!	!	!	!	!	!	!	!	!LO:TX:b:t=e:note=korekta	!	!	!	!
!	!	!	!	!	!	!	!	!	!	!	!	!	!	!	!	!	!	!	!	!	!	!LO:TX:a:t=e:note=korekta	!	!	!	!
4A\	.	4a\	.	4f# 4A/	.	4dd 4f#\	.	4A\	-sur-	.	4A\	-sur-	.	4f#\	-sur-	.	4dd\	-sur-	.	4d\	.	4f#\	.	4dd\	4ff#\	.
=12	=12	=12	=12	=12	=12	=12	=12	=12	=12	=12	=12	=12	=12	=12	=12	=12	=12	=12	=12	=12	=12	=12	=12	=12	=12	=12
!	!	!	!	!	!	!	!	!	!	!	!	!	!	!	!	!	!	!	!	!	!	!LO:TX:b:t=e:note=korekta	!	!	!	!
!	!	!	!	!	!	!	!	!	!	!	!	!	!	!	!	!	!	!	!	!	!	!LO:TX:a:t=e:note=korekta	!	!	!	!
4d'\	.	4dd\	.	16f#/LL	.	16dd\LL	.	4d\	-re-	.	4A\	-re-	.	4f#\	-re-	.	4dd\	-re-	.	4d\	.	4f#\	.	4dd\	4ff#\	.
.	.	.	.	16g/	.	16ee\	.	.	.	.	.	.	.	.	.	.	.	.	.	.	.	.	.	.	.	.
.	.	.	.	16a/	.	16ff#\	.	.	.	.	.	.	.	.	.	.	.	.	.	.	.	.	.	.	.	.
.	.	.	.	16g/JJ	.	16ee\JJ	.	.	.	.	.	.	.	.	.	.	.	.	.	.	.	.	.	.	.	.
*tremolo	*	*tremolo	*	*	*	*	*	*	*	*	*	*	*	*	*	*	*	*	*	*	*	*	*	*	*	*
!	!	!	!	!	!	!	!	!	!	!	!	!	!	!	!	!	!	!	!	!	!	!LO:TX:b:t=c:note=korekta	!	!	!	!
!LO:TX:a:t=....:note=pomocnicze oznaczenie tremola	!	!	!	!	!	!	!	!	!	!	!	!	!	!	!	!	!	!	!	!	!	!LO:TX:a:t=c:note=korekta	!	!	!	!
8D\L	.	8d\L	.	8f#/L	.	8dd\L	.	8D\	-xit	.	8d\	-xit	.	8f#\	-xit	.	8dd\	-xit	.	2D/	.	8d\L	.	4f#/	4dd\	.
!	!	!	!	!	!	!	!	!	!	!	!	!	!	!	!	!	!	!	!	!	!	!LO:TX:b:t=c:note=korekta	!	!	!	!
!	!	!	!	!	!	!	!	!	!	!	!	!	!	!	!	!	!	!	!	!	!	!LO:TX:a:t=c:note=korekta	!	!	!	!
8D\	.	8d\	.	8b/	.	8ddd\	.	8D\	ter-	.	8d\	ter-	.	8b\	ter-	.	8dd\	ter-	.	.	.	8d\	.	.	.	.
!	!	!	!	!	!	!	!	!	!	!	!	!	!	!	!	!	!	!	!	!	!	!LO:TX:b:t=c:note=korekta	!	!	!	!
!	!	!	!	!	!	!	!	!	!	!	!	!	!	!	!	!	!	!	!	!	!	!LO:TX:a:t=c:note=korekta	!	!	!	!
8D\	.	8d\	.	8a/	.	8ccc#\	.	8D\	-ti-	.	8d\	-ti-	.	8a\	-ti-	.	8cc#\	-ti-	.	.	.	8d\	.	4r	4r	.
!	!	!	!	!	!	!	!	!	!	!	!	!	!	!	!	!	!	!	!	!	!	!LO:TX:b:t=c:note=korekta	!	!	!	!
!	!	!	!	!	!	!	!	!	!	!	!	!	!	!	!	!	!	!	!	!	!	!LO:TX:a:t=c:note=korekta	!	!	!	!
8D\J	.	8d\J	.	8g/J	.	8bb\J	.	8D\	-a	.	8d\	-a	.	8g\	-a	.	8b\	-a	.	.	.	8d\J	.	.	.	.
!	!	!	!	!	!	!	!	!	!	!	!	!	!	!	!	!	!	!	!	!LO:LB:g=original	!	!	!	!LO:LB:g=original	!	!
=13	=13	=13	=13	=13	=13	=13	=13	=13	=13	=13	=13	=13	=13	=13	=13	=13	=13	=13	=13	=13	=13	=13	=13	=13	=13	=13
8D\L	.	8d\L	.	8g/L	.	8bb\L	.	4D\	di-	.	4d\	di-	.	8g\L	di-	.	8b\L	di-	.	2D/	.	2d\	.	8gg\L	8bb\L	.
8D\	.	8d\	.	8f#/J	.	8aa\J	.	.	.	.	.	.	.	8f#\J	.	.	8a\J	.	.	.	.	.	.	8ff#\J	8aa\J	.
*	*	*	*	*tremolo	*	*	*	*	*	*	*	*	*	*	*	*	*	*	*	*	*	*	*	*	*	*
!	!	!	!	!	!	!	!	!	!	!	!	!	!	!LO:LB:g=original	!	!	!	!	!	!	!	!	!	!	!	!
8D\	.	8d\	.	16f#/LL	.	4.aa\	.	4.D\	-e	.	4.d\	-e	.	4.f#\	-e	.	4.a\	-e	.	.	.	.	.	2ff#\	2aa\	.
.	.	.	.	16a/	.	.	.	.	.	.	.	.	.	.	.	.	.	.	.	.	.	.	.	.	.	.
8D\	.	8d\	.	16f#/	.	.	.	.	.	.	.	.	.	.	.	.	.	.	.	.	.	.	.	.	.	.
.	.	.	.	16a/	.	.	.	.	.	.	.	.	.	.	.	.	.	.	.	.	.	.	.	.	.	.
8D\	.	8d\	.	16f#/	.	.	.	.	.	.	.	.	.	.	.	.	.	.	.	4r	.	4r	.	.	.	.
.	.	.	.	16a/	.	.	.	.	.	.	.	.	.	.	.	.	.	.	.	.	.	.	.	.	.	.
8D\J	.	8d\J	.	16f#/	.	8aa\	.	8D\	se-	.	8d\	se-	.	8f#\	se-	.	8a\	se-	.	.	.	.	.	.	.	.
.	.	.	.	16a/JJ	.	.	.	.	.	.	.	.	.	.	.	.	.	.	.	.	.	.	.	.	.	.
!	!	!	!	!	!	!	!	!LO:LB:g=original	!	!	!LO:LB:g=original	!	!	!	!	!	!LO:LB:g=original	!	!	!	!	!	!	!	!	!
=14	=14	=14	=14	=14	=14	=14	=14	=14	=14	=14	=14	=14	=14	=14	=14	=14	=14	=14	=14	=14	=14	=14	=14	=14	=14	=14
8D\L	.	8d\L	.	16d/LL	.	8aa#X\L	.	4D\	-cun-	.	4d\	-cun-	.	8f#\L	-cun-	.	8a\L	-cun-	.	2D/	.	2d\	.	2gg\	2bb\	.
.	.	.	.	16b/	.	.	.	.	.	.	.	.	.	.	.	.	.	.	.	.	.	.	.	.	.	.
8D\	.	8d\	.	16d/	.	8bb\J	.	.	.	.	.	.	.	8g\J	.	.	8b\J	.	.	.	.	.	.	.	.	.
.	.	.	.	16b/	.	.	.	.	.	.	.	.	.	.	.	.	.	.	.	.	.	.	.	.	.	.
8D\	.	8d\	.	16d/	.	4.bb\	.	4.D\	-dum	.	4.d\	-d(um)	.	4.g\	-dum	.	4.b\	-dum	.	.	.	.	.	.	.	.
.	.	.	.	16b/	.	.	.	.	.	.	.	.	.	.	.	.	.	.	.	.	.	.	.	.	.	.
8D\	.	8d\J	.	16d/	.	.	.	.	.	.	.	.	.	.	.	.	.	.	.	.	.	.	.	.	.	.
.	.	.	.	16b/JJ	.	.	.	.	.	.	.	.	.	.	.	.	.	.	.	.	.	.	.	.	.	.
*	*	*Xtremolo	*	*	*	*	*	*	*	*	*	*	*	*	*	*	*	*	*	*	*	*	*	*	*	*
8D\	.	8A/L	.	16e/LL	.	.	.	.	.	.	.	.	.	.	.	.	.	.	.	4A/	.	4e\	.	4ee\	4gg\	.
.	.	.	.	16cc#/	.	.	.	.	.	.	.	.	.	.	.	.	.	.	.	.	.	.	.	.	.	.
8D\J	.	8A/J	.	16e/	.	8ccc#\	.	8D\	Scri-	.	8A\	scri-	.	8e\	Scri-	.	8cc#\	scri-	.	.	.	.	.	.	.	.
.	.	.	.	16cc#/JJ	.	.	.	.	.	.	.	.	.	.	.	.	.	.	.	.	.	.	.	.	.	.
!	!	!	!	!	!	!	!	!	!	!	!	!	!	!	!	!	!	!	!	!	!	!	!	!	!LO:LB:g=original	!
=15	=15	=15	=15	=15	=15	=15	=15	=15	=15	=15	=15	=15	=15	=15	=15	=15	=15	=15	=15	=15	=15	=15	=15	=15	=15	=15
*	*	*tremolo	*	*	*	*	*	*	*	*	*	*	*	*	*	*	*	*	*	*	*	*	*	*	*	*
8D\L	.	8d\L	.	16f#/LL	.	8ccc#\L	.	4D\	-ptu-	.	4A\	-ptu-	.	8e\L	-ptu-	.	8cc#\L	-ptu-	.	8A\L	.	8e\L	.	8ee\L	8gg\L	.
.	.	.	.	16a/	.	.	.	.	.	.	.	.	.	.	.	.	.	.	.	.	.	.	.	.	.	.
!	!	!	!	!	!	!	!	!	!	!	!	!	!	!	!	!	!	!	!	!	!	!LO:TX:a:t=e:note=korekta	!	!	!	!
8D\	.	8d\	.	16f#/	.	8ddd\J	.	.	.	.	.	.	.	8f#\J	.	.	8dd\J	.	.	8d\J	.	8f#\	.	8dd\J	8ff#\J	.
.	.	.	.	16a/	.	.	.	.	.	.	.	.	.	.	.	.	.	.	.	.	.	.	.	.	.	.
8D\	.	8d\	.	16f#/	.	16ddd\LL	.	4D\	-ras	.	4A\	-ras	.	4f#\	-ras	.	4dd\	-ras	.	8D/L	.	8d\	.	4.dd\	4.ff#\	.
.	.	.	.	16a/	.	16ccc#\	.	.	.	.	.	.	.	.	.	.	.	.	.	.	.	.	.	.	.	.
8D\	.	8d\	.	16f#/	.	16ddd\	.	.	.	.	.	.	.	.	.	.	.	.	.	8D/	.	8d\J	.	.	.	.
.	.	.	.	16a/	.	16ccc#\JJ	.	.	.	.	.	.	.	.	.	.	.	.	.	.	.	.	.	.	.	.
!	!	!	!	!	!	!	!	!	!	!	!	!	!	!	!	!	!	!	!	!	!	!LO:LB:g=original	!	!	!	!
8D\	.	8d\	.	16f#/	.	8ddd\L	.	8D\	et	.	8A\	et	.	8f#\	et	.	8dd\	et	.	8D/	.	8d\L	.	.	.	.
.	.	.	.	16a/	.	.	.	.	.	.	.	.	.	.	.	.	.	.	.	.	.	.	.	.	.	.
8D\J	.	8d\J	.	16f#/	.	8ddd\J	.	8D\	as-	.	8A\	as-	.	8f#\	as-	.	8dd\	as-	.	8D/J	.	8d\J	.	8ff#\	8aa\	.
.	.	.	.	16a/JJ	.	.	.	.	.	.	.	.	.	.	.	.	.	.	.	.	.	.	.	.	.	.
!	!	!	!	!LO:LB:g=original	!	!LO:LB:g=original	!	!	!	!	!	!	!	!	!	!	!	!	!	!	!	!	!	!	!	!
=16	=16	=16	=16	=16	=16	=16	=16	=16	=16	=16	=16	=16	=16	=16	=16	=16	=16	=16	=16	=16	=16	=16	=16	=16	=16	=16
8D\L	.	8d\L	.	16d/LL	.	8ccc#\L	.	4D\	-cen-	.	4d\	-cen-	.	8f#\L	-cen-	.	8cc#\L	-cen-	.	2D/	.	2d\	.	8ff#\L	8aa\L	.
.	.	.	.	16b/	.	.	.	.	.	.	.	.	.	.	.	.	.	.	.	.	.	.	.	.	.	.
8D\	.	8d\	.	16d/	.	8bb\J	.	.	.	.	.	.	.	8g\J	.	.	8b\J	.	.	.	.	.	.	8gg\J	8bb\J	.
.	.	.	.	16b/	.	.	.	.	.	.	.	.	.	.	.	.	.	.	.	.	.	.	.	.	.	.
8D\	.	8d\	.	16d/	.	4.bb\	.	4.D\	-dit	.	4.d\	-dit	.	4.g\	-dit	.	4.b\	-dit	.	.	.	.	.	4.gg\	4.bb\	.
.	.	.	.	16b/	.	.	.	.	.	.	.	.	.	.	.	.	.	.	.	.	.	.	.	.	.	.
8D\	.	8d\	.	16d/	.	.	.	.	.	.	.	.	.	.	.	.	.	.	.	.	.	.	.	.	.	.
.	.	.	.	16b/JJ	.	.	.	.	.	.	.	.	.	.	.	.	.	.	.	.	.	.	.	.	.	.
*	*	*	*	*Xtremolo	*	*	*	*	*	*	*	*	*	*	*	*	*	*	*	*	*	*	*	*	*	*
8D\	.	8d\	.	16g/LL	.	.	.	.	.	.	.	.	.	.	.	.	.	.	.	4A/	.	4e\	.	.	.	.
.	.	.	.	16a/	.	.	.	.	.	.	.	.	.	.	.	.	.	.	.	.	.	.	.	.	.	.
8D\J	.	8d\J	.	16g/	.	8ccc#\	.	8D\	in	.	8A\	in	.	8e\	in	.	8cc#\	in	.	.	.	.	.	8ee\	8gg\	.
.	.	.	.	16a/JJ	.	.	.	.	.	.	.	.	.	.	.	.	.	.	.	.	.	.	.	.	.	.
=17	=17	=17	=17	=17	=17	=17	=17	=17	=17	=17	=17	=17	=17	=17	=17	=17	=17	=17	=17	=17	=17	=17	=17	=17	=17	=17
*	*	*	*	*tremolo	*	*	*	*	*	*	*	*	*	*	*	*	*	*	*	*	*	*	*	*	*	*
8D\L	.	8d\L	.	16f#/LL	.	8ccc#\L	.	4D\	Cae-	.	4A\	Cae-	.	8e\L	Cae-	.	8cc#\L	Cae-	.	8A\L	.	8e\L	.	8ee\L	8gg\L	.
.	.	.	.	16a/	.	.	.	.	.	.	.	.	.	.	.	.	.	.	.	.	.	.	.	.	.	.
8D\	.	8d\	.	16f#/	.	8ddd\J	.	.	.	.	.	.	.	8f#\J	.	.	8dd\J	.	.	8d\J	.	8f#\J	.	8dd\J	8ff#\	.
.	.	.	.	16a/	.	.	.	.	.	.	.	.	.	.	.	.	.	.	.	.	.	.	.	.	.	.
8D\	.	8d\	.	16f#/	.	8ddd\L	.	4D\	-lum	.	4A\	-lum	.	4f#\	-lum	.	4dd\	-lum	.	4d\	.	4f#\	.	4dd\	8ee\	.
.	.	.	.	16a/	.	.	.	.	.	.	.	.	.	.	.	.	.	.	.	.	.	.	.	.	.	.
8D\	.	8d\	.	16f#/	.	8dd\	.	.	.	.	.	.	.	.	.	.	.	.	.	.	.	.	.	.	8dd\	.
.	.	.	.	16a/	.	.	.	.	.	.	.	.	.	.	.	.	.	.	.	.	.	.	.	.	.	.
8D\	.	8d\	.	16f#/	.	8ff#\	.	4r	.	.	4r	.	.	4r	.	.	4r	.	.	4r	.	4r	.	4r	8ff#\	.
.	.	.	.	16a/	.	.	.	.	.	.	.	.	.	.	.	.	.	.	.	.	.	.	.	.	.	.
8D\J	.	8d\J	.	16f#/	.	8aa\J	.	.	.	.	.	.	.	.	.	.	.	.	.	.	.	.	.	.	8aa\J	.
.	.	.	.	16a/JJ	.	.	.	.	.	.	.	.	.	.	.	.	.	.	.	.	.	.	.	.	.	.
*Xtremolo	*	*Xtremolo	*	*	*	*	*	*	*	*	*	*	*	*	*	*	*	*	*	*	*	*	*	*	*	*
!LO:LB:g=original	!	!	!	!	!	!	!	!	!	!	!	!	!	!	!	!	!	!	!	!	!	!	!	!	!	!
=18	=18	=18	=18	=18	=18	=18	=18	=18	=18	=18	=18	=18	=18	=18	=18	=18	=18	=18	=18	=18	=18	=18	=18	=18	=18	=18
8E\L	.	8c#\L	.	16a/LL	.	16aa\LL	.	4E\	se-	.	4c#\	Se-	.	4a\	Se-	.	4ee\	se-	.	2A\	.	2e\	.	2.a/	2gg\	.
.	.	.	.	16a/	.	16gg\	.	.	.	.	.	.	.	.	.	.	.	.	.	.	.	.	.	.	.	.
8E\	.	8c#\	.	16a/	.	16ff#\	.	.	.	.	.	.	.	.	.	.	.	.	.	.	.	.	.	.	.	.
.	.	.	.	16a/	.	16gg\JJ	.	.	.	.	.	.	.	.	.	.	.	.	.	.	.	.	.	.	.	.
8C#\	.	8e\	.	16a/	.	16a\LL	.	4C#/	-det	.	4e\	-det	.	4a\	-det	.	4ee\	-det	.	.	.	.	.	.	.	.
.	.	.	.	16a/	.	16cc#\	.	.	.	.	.	.	.	.	.	.	.	.	.	.	.	.	.	.	.	.
8C#\	.	8e\	.	16a/	.	16ee\	.	.	.	.	.	.	.	.	.	.	.	.	.	.	.	.	.	.	.	.
.	.	.	.	16a/	.	16gg\JJ	.	.	.	.	.	.	.	.	.	.	.	.	.	.	.	.	.	.	.	.
8D\	.	8d\	.	16a/	.	16ff#\LL	.	4D/	ad	.	4d\	ad	.	4a\	ad	.	4ff#\	ad	.	4d\	.	4f#\	.	.	4ff#\	.
.	.	.	.	16a/	.	16ee\	.	.	.	.	.	.	.	.	.	.	.	.	.	.	.	.	.	.	.	.
8D\J	.	8d\J	.	16a/	.	16ff#\	.	.	.	.	.	.	.	.	.	.	.	.	.	.	.	.	.	.	.	.
.	.	.	.	16a/JJ	.	16aa\JJ	.	.	.	.	.	.	.	.	.	.	.	.	.	.	.	.	.	.	.	.
!	!	!LO:LB:g=original	!	!	!	!	!	!	!	!	!	!	!	!	!	!	!	!	!	!	!	!	!	!	!	!
=19	=19	=19	=19	=19	=19	=19	=19	=19	=19	=19	=19	=19	=19	=19	=19	=19	=19	=19	=19	=19	=19	=19	=19	=19	=19	=19
8A\L	.	8e\L	.	16a/LL	.	16cc#\LL	.	4A\	dex-	.	4e\	dex-	.	4.a\	dex-	.	4cc#\	dex-	.	4A/	.	4e\	.	4cc#\	2.aa\	.
.	.	.	.	16a/	.	16b\	.	.	.	.	.	.	.	.	.	.	.	.	.	.	.	.	.	.	.	.
8A\	.	8e\	.	16a/	.	16cc#\	.	.	.	.	.	.	.	.	.	.	.	.	.	.	.	.	.	.	.	.
.	.	.	.	16a/	.	16ee\JJ	.	.	.	.	.	.	.	.	.	.	.	.	.	.	.	.	.	.	.	.
8F#\	.	8f#\	.	16a/	.	16dd\LL	.	4F#\	-te-	.	4d\	-te-	.	.	.	.	4dd\	-te-	.	4F#/	.	4d\	.	4dd\	.	.
.	.	.	.	16a/	.	16cc#\	.	.	.	.	.	.	.	.	.	.	.	.	.	.	.	.	.	.	.	.
8F#\	.	8f#\	.	16a/	.	16dd\	.	.	.	.	.	.	.	8a\	-te-	.	.	.	.	.	.	.	.	.	.	.
.	.	.	.	16a/	.	16ff#\JJ	.	.	.	.	.	.	.	.	.	.	.	.	.	.	.	.	.	.	.	.
8C#\	.	8e\	.	16a/	.	16ee\LL	.	4C#/	-ram	.	4c#\	-ram	.	4a\	-ram	.	4ee\	-ram	.	4A/	.	4e\	.	4ee\	.	.
.	.	.	.	16a/	.	16dd\	.	.	.	.	.	.	.	.	.	.	.	.	.	.	.	.	.	.	.	.
8C#\J	.	8e\J	.	16a/	.	16ee\	.	.	.	.	.	.	.	.	.	.	.	.	.	.	.	.	.	.	.	.
.	.	.	.	16a/JJ	.	16gg\JJ	.	.	.	.	.	.	.	.	.	.	.	.	.	.	.	.	.	.	.	.
!	!	!	!	!	!	!	!	!	!	!	!	!	!	!LO:LB:g=original	!	!	!	!	!	!	!	!	!	!LO:LB:g=original	!	!
=20	=20	=20	=20	=20	=20	=20	=20	=20	=20	=20	=20	=20	=20	=20	=20	=20	=20	=20	=20	=20	=20	=20	=20	=20	=20	=20
8D\L	.	8f#\L	.	16a/LL	.	16ff#\LL	.	4D/	Pa-	.	4d\	Pa-	.	4a\	Pa-	.	4ff#\	Pa-	.	4d\	.	4f#\	.	4ff#\	4aa\	.
.	.	.	.	16a/	.	16aa\	.	.	.	.	.	.	.	.	.	.	.	.	.	.	.	.	.	.	.	.
8D\	.	8f#\	.	16a/	.	16gg#X\	.	.	.	.	.	.	.	.	.	.	.	.	.	.	.	.	.	.	.	.
.	.	.	.	16a/	.	16aa\JJ	.	.	.	.	.	.	.	.	.	.	.	.	.	.	.	.	.	.	.	.
!	!	!	!	!	!	!LO:LB:g=original	!	!	!	!	!	!	!	!	!	!	!	!	!	!	!	!	!	!	!	!
8C#\	.	8e\	.	16a/	.	16aa\LL	.	8C#/	-tris	.	8e\	-tris	.	8a\	-tris	.	8ee\	-tris	.	4e\	.	4g\	.	4ee\	4gg\	.
.	.	.	.	16a/	.	16ggn\	.	.	.	.	.	.	.	.	.	.	.	.	.	.	.	.	.	.	.	.
8C#\	.	8e\	.	16a/	.	16ff#\	.	8C#/	et	.	8e\	et	.	8a\	et	.	8ee\	et	.	.	.	.	.	.	.	.
.	.	.	.	16a/	.	16gg\JJ	.	.	.	.	.	.	.	.	.	.	.	.	.	.	.	.	.	.	.	.
!	!	!	!	!	!	!	!	!	!	!	!	!	!	!	!	!	!LO:LB:g=original	!	!	!	!	!	!	!	!	!
8D\	.	8d\	.	16a/	.	16gg\LL	.	8D/	i-	.	8d\	i-	.	8a\	i-	.	8dd\	i-	.	4d\	.	4f#\	.	4dd\	4ff#\	.
.	.	.	.	16a/	.	16ff#\	.	.	.	.	.	.	.	.	.	.	.	.	.	.	.	.	.	.	.	.
8D\J	.	8d\J	.	16a/	.	16ee\	.	8D/	-te-	.	8d\	-te-	.	8a\	-te-	.	8dd\	-te-	.	.	.	.	.	.	.	.
.	.	.	.	16a/JJ	.	16ff#\JJ	.	.	.	.	.	.	.	.	.	.	.	.	.	.	.	.	.	.	.	.
!	!	!	!	!	!	!	!	!LO:LB:g=original	!	!	!LO:LB:g=original	!	!	!	!	!	!	!	!	!	!	!	!	!	!	!
=21	=21	=21	=21	=21	=21	=21	=21	=21	=21	=21	=21	=21	=21	=21	=21	=21	=21	=21	=21	=21	=21	=21	=21	=21	=21	=21
*tremolo	*	*tremolo	*	*	*	*	*	*	*	*	*	*	*	*	*	*	*	*	*	*	*	*	*	*	*	*
8G\L	.	8g\L	.	16b\LL	.	16ff#\LL	.	8G\	-rum	.	8d\	-rum	.	8b\	-rum	.	8ee\	-rum	.	4e\	.	4e\	.	2.b\	2ee\	.
.	.	.	.	16b\	.	16ee\	.	.	.	.	.	.	.	.	.	.	.	.	.	.	.	.	.	.	.	.
8G\	.	8g\	.	16b\	.	16dd#X\	.	8G\	ven-	.	8d\	ven-	.	8b\	ven-	.	8ee\	ven-	.	.	.	.	.	.	.	.
.	.	.	.	16b\	.	16ee\JJ	.	.	.	.	.	.	.	.	.	.	.	.	.	.	.	.	.	.	.	.
8G\	.	8g\	.	16b\	.	16ff#\LL	.	4G\	-tu-	.	4e\	-tu-	.	4b\	-tu-	.	4ee\	-tu-	.	4e\	.	4e\	.	.	.	.
.	.	.	.	16b\	.	16ee\	.	.	.	.	.	.	.	.	.	.	.	.	.	.	.	.	.	.	.	.
8G\J	.	8g\J	.	16b\	.	16dd#\	.	.	.	.	.	.	.	.	.	.	.	.	.	.	.	.	.	.	.	.
.	.	.	.	16b\	.	16ee\JJ	.	.	.	.	.	.	.	.	.	.	.	.	.	.	.	.	.	.	.	.
*Xtremolo	*	*Xtremolo	*	*	*	*	*	*	*	*	*	*	*	*	*	*	*	*	*	*	*	*	*	*	*	*
8G#X\L	.	8e\L	.	16b\	.	16ee\LL	.	4G#X\	-rus	.	4e\	-rus	.	4b\	-rus	.	4dd\	-rus	.	4e\	.	4e\	.	.	4dd\	.
.	.	.	.	16b\	.	16ddn\	.	.	.	.	.	.	.	.	.	.	.	.	.	.	.	.	.	.	.	.
8G#\J	.	8e\J	.	16b\	.	16cc#\	.	.	.	.	.	.	.	.	.	.	.	.	.	.	.	.	.	.	.	.
.	.	.	.	16b\JJ	.	16dd\JJ	.	.	.	.	.	.	.	.	.	.	.	.	.	.	.	.	.	.	.	.
*	*	*	*	*Xtremolo	*	*	*	*	*	*	*	*	*	*	*	*	*	*	*	*	*	*	*	*	*	*
=22	=22	=22	=22	=22	=22	=22	=22	=22	=22	=22	=22	=22	=22	=22	=22	=22	=22	=22	=22	=22	=22	=22	=22	=22	=22	=22
!LO:TX:t=P:problem:nadmiarowy takt w cor 2	!	!LO:TX:t=P:problem:nadmiarowy takt w cor 2	!	!LO:TX:t=P:problem:nadmiarowy takt w cor 2	!	!LO:TX:t=P:problem:nadmiarowy takt w cor 2	!	!LO:TX:t=P:problem:nadmiarowy takt w cor 2	!	!	!LO:TX:t=P:problem:nadmiarowy takt w cor 2	!	!	!LO:TX:t=P:problem:nadmiarowy takt w cor 2	!	!	!LO:TX:t=P:problem:nadmiarowy takt w cor 2	!	!	!	!	!LO:TX:t=P:problem:nadmiarowy takt w cor 2	!	!LO:TX:t=P:problem:nadmiarowy takt w cor 2	!LO:TX:t=P:problem:nadmiarowy takt w cor 2	!
2.ryy	.	2.ryy	.	2.ryy	.	2.ryy	.	2.ryy	.	.	2.ryy	.	.	2.ryy	.	.	2.ryy	.	.	4e\	.	2.ryy	.	2.ryy	2.ryy	.
.	.	.	.	.	.	.	.	.	.	.	.	.	.	.	.	.	.	.	.	4e\	.	.	.	.	.	.
.	.	.	.	.	.	.	.	.	.	.	.	.	.	.	.	.	.	.	.	4e\	.	.	.	.	.	.
=23	=23	=23	=23	=23	=23	=23	=23	=23	=23	=23	=23	=23	=23	=23	=23	=23	=23	=23	=23	=23	=23	=23	=23	=23	=23	=23
4A\	.	4e\	.	4e/	.	8cc#\L	.	4A\	est	.	4e\	est.	.	4a\	est	.	4cc#\	est	.	4A/	.	4e\	.	4a/	4cc#\	.
.	.	.	.	.	.	8aa\	.	.	.	.	.	.	.	.	.	.	.	.	.	.	.	.	.	.	.	.
4AA/	.	4A/	.	4e/	.	8a\	.	4r	.	.	4r	.	.	4r	.	.	8r	.	.	4A/	.	4e\	.	4r	4r	.
.	.	.	.	.	.	8a\	.	.	.	.	.	.	.	.	.	.	8a\	cum	.	.	.	.	.	.	.	.
4r	.	4r	.	4r	.	8b\	.	4r	.	.	4r	.	.	4r	.	.	8b\	glo-	.	4r	.	4r	.	4r	4r	.
.	.	.	.	.	.	8cc#\J	.	.	.	.	.	.	.	.	.	.	8cc#\	-ri-	.	.	.	.	.	.	.	.
=24	=24	=24	=24	=24	=24	=24	=24	=24	=24	=24	=24	=24	=24	=24	=24	=24	=24	=24	=24	=24	=24	=24	=24	=24	=24	=24
*	*	*	*	*	*	*tremolo	*	*	*	*	*	*	*	*	*	*	*	*	*	*	*	*	*	*	*	*
8E\L	.	8e\L	.	8g#X/L	.	16dd\LL	.	8E\L	Ju-	.	2B\	Ju-	.	2e\	Ju-	.	4dd\	-a	.	4e\	.	4e\	.	8g#X/L	2.ee\	.
.	.	.	.	.	.	16dd\	.	.	.	.	.	.	.	.	.	.	.	.	.	.	.	.	.	.	.	.
8F#\	.	8f#\	.	8a/	.	16dd\	.	8F#\	.	.	.	.	.	.	.	.	.	.	.	.	.	.	.	8a/	.	.
.	.	.	.	.	.	16dd\	.	.	.	.	.	.	.	.	.	.	.	.	.	.	.	.	.	.	.	.
*	*	*	*	*	*	*	*	*	*	*	*	*	*	*	*	*	*	*	*	*tremolo	*	*	*	*	*	*
*	*	*	*	*	*	*	*	*	*	*	*	*	*	*	*	*	*	*	*	*	*	*tremolo	*	*	*	*
8G#X\	.	8g#X\	.	8b/	.	16dd\	.	8G#X\	.	.	.	.	.	.	.	.	4dd\	Ju-	.	8e\L	.	8e\L	.	8b/	.	.
.	.	.	.	.	.	16dd\	.	.	.	.	.	.	.	.	.	.	.	.	.	.	.	.	.	.	.	.
8E\	.	8e\	.	8g#/	.	16dd\	.	8E\	.	.	.	.	.	.	.	.	.	.	.	8e\	.	8e\	.	8g#/	.	.
.	.	.	.	.	.	16dd\	.	.	.	.	.	.	.	.	.	.	.	.	.	.	.	.	.	.	.	.
8F#\	.	8f#\	.	8a/	.	16dd\	.	8F#\	.	.	4B\	-di-	.	4e\	-di-	.	4dd\	-di-	.	8e\	.	8e\	.	8a/	.	.
.	.	.	.	.	.	16dd\	.	.	.	.	.	.	.	.	.	.	.	.	.	.	.	.	.	.	.	.
8G#\J	.	8g#\J	.	8b/J	.	16dd\	.	8G#\J	-di-	.	.	.	.	.	.	.	.	.	.	8e\J	.	8e\J	.	8b/J	.	.
.	.	.	.	.	.	16dd\JJ	.	.	.	.	.	.	.	.	.	.	.	.	.	.	.	.	.	.	.	.
*	*	*	*	*	*	*Xtremolo	*	*	*	*	*	*	*	*	*	*	*	*	*	*X	*	*Xtremolo	*	*	*	*
=25	=25	=25	=25	=25	=25	=25	=25	=25	=25	=25	=25	=25	=25	=25	=25	=25	=25	=25	=25	=25	=25	=25	=25	=25	=25	=25
*	*	*tremolo	*	*tremolo	*	*	*	*	*	*	*	*	*	*	*	*	*	*	*	*	*	*	*	*	*	*
8A\L	.	8a\L	.	16cc#\LL	.	16cc#\LL	.	8A\	-ca-	.	8A\	-ca-	.	8e\	-ca-	.	8cc#\	-ca-	.	8A/L	.	2e\	.	2cc#\	2.ee\	.
.	.	.	.	16cc#\	.	16ee\	.	.	.	.	.	.	.	.	.	.	.	.	.	.	.	.	.	.	.	.
8A\	.	8a\	.	16cc#\	.	16dd#X\	.	8A\	-re	.	8A\	-re	.	8e\	-re	.	8cc#\	-re	.	8A/	.	.	.	.	.	.
.	.	.	.	16cc#\JJ	.	16ee\JJ	.	.	.	.	.	.	.	.	.	.	.	.	.	.	.	.	.	.	.	.
8c#\	.	8a\	.	16a\LL	.	16ff#\LL	.	4c#\	vi-	.	4A\	vi-	.	4e\	vi-	.	4cc#\	vi-	.	8A/	.	.	.	.	.	.
.	.	.	.	16a\	.	16ee\	.	.	.	.	.	.	.	.	.	.	.	.	.	.	.	.	.	.	.	.
8c#\	.	8a\	.	16a\	.	16dd#\	.	.	.	.	.	.	.	.	.	.	.	.	.	8A/J	.	.	.	.	.	.
.	.	.	.	16a\JJ	.	16ee\JJ	.	.	.	.	.	.	.	.	.	.	.	.	.	.	.	.	.	.	.	.
*	*	*	*	*	*	*	*	*	*	*	*	*	*	*	*	*	*	*	*	*Xtremolo	*	*	*	*	*	*
8A\	.	8a\	.	16cc#\LL	.	16aa\LL	.	8A\	-vos	.	8A\	-vos	.	8e\	-vos	.	8cc#\	-vos	.	4r	.	4r	.	4r	.	.
.	.	.	.	16cc#\	.	16gg#X\	.	.	.	.	.	.	.	.	.	.	.	.	.	.	.	.	.	.	.	.
8A\J	.	8a\J	.	16cc#\	.	16ff#\	.	8A\	et	.	8A\	et	.	8e\	et	.	8cc#\	et	.	.	.	.	.	.	.	.
.	.	.	.	16cc#\JJ	.	16ee\JJ	.	.	.	.	.	.	.	.	.	.	.	.	.	.	.	.	.	.	.	.
*	*	*Xtremolo	*	*Xtremolo	*	*	*	*	*	*	*	*	*	*	*	*	*	*	*	*	*	*	*	*	*	*
!	!	!	!	!	!	!LO:LB:g=original	!	!	!	!	!	!	!	!	!	!	!	!	!	!LO:LB:g=original	!	!	!	!	!	!
=26	=26	=26	=26	=26	=26	=26	=26	=26	=26	=26	=26	=26	=26	=26	=26	=26	=26	=26	=26	=26	=26	=26	=26	=26	=26	=26
*	*	*	*	*	*	*tremolo	*	*	*	*	*	*	*	*	*	*	*	*	*	*	*	*	*	*	*	*
!	!	!	!	!	!	!	!	!	!	!	!	!	!	!	!	!	!	!	!	!	!	!	!	!LO:SIC:v:s=8g#/L	!	!
8E\L	.	8e\L	.	8g#X/L	.	16dd\LL	.	8E\L	mor-	.	2B\	mor-	.	2e\	mor-	.	2dd\	mor-	.	4e\	.	4e\	.	8g/L	2.ee\	.
.	.	.	.	.	.	16dd\	.	.	.	.	.	.	.	.	.	.	.	.	.	.	.	.	.	.	.	.
8F#\	.	8f#\	.	8a/	.	16dd\	.	8F#\	.	.	.	.	.	.	.	.	.	.	.	.	.	.	.	8a/	.	.
.	.	.	.	.	.	16dd\	.	.	.	.	.	.	.	.	.	.	.	.	.	.	.	.	.	.	.	.
*	*	*	*	*	*	*	*	*	*	*	*	*	*	*	*	*	*	*	*	*tremolo	*	*tremolo	*	*	*	*
!	!	!LO:SIC:v:s=8g#\	!	!	!	!	!	!	!	!	!	!	!	!	!	!	!	!	!	!	!	!	!	!	!	!
8G#X\	.	8g\	.	8b/	.	16dd\	.	8G#X\	.	.	.	.	.	.	.	.	.	.	.	8e\L	.	8e\L	.	8b/	.	.
.	.	.	.	.	.	16dd\	.	.	.	.	.	.	.	.	.	.	.	.	.	.	.	.	.	.	.	.
!	!	!	!	!	!	!	!	!	!	!	!	!	!	!	!	!	!	!	!	!	!	!	!	!LO:SIC:v:s=8g#/	!	!
8E\	.	8e\	.	8g#/J	.	16dd\	.	8E\	.	.	.	.	.	.	.	.	.	.	.	8e\	.	8e\	.	8g/	.	.
.	.	.	.	.	.	16dd\	.	.	.	.	.	.	.	.	.	.	.	.	.	.	.	.	.	.	.	.
!	!	!	!	!LO:LB:g=original	!	!	!	!	!	!	!	!	!	!	!	!	!	!	!	!	!	!	!	!	!	!
8F#\	.	8f#\	.	8a/L	.	16dd\	.	8F#\	.	.	4B\	-tu-	.	4e\	-tu-	.	4dd\	-tu-	.	8e\	.	8e\	.	8a/	.	.
.	.	.	.	.	.	16dd\	.	.	.	.	.	.	.	.	.	.	.	.	.	.	.	.	.	.	.	.
!	!	!LO:SIC:v:s=8g#\J	!	!	!	!	!	!	!	!	!	!	!	!	!	!	!	!	!	!	!	!	!	!	!	!
8G#\J	.	8g\J	.	8b/J	.	16dd\	.	8G#\J	-tu-	.	.	.	.	.	.	.	.	.	.	8e\J	.	8e\J	.	8b/J	.	.
.	.	.	.	.	.	16dd\JJ	.	.	.	.	.	.	.	.	.	.	.	.	.	.	.	.	.	.	.	.
*	*	*	*	*	*	*Xtremolo	*	*	*	*	*	*	*	*	*	*	*	*	*	*Xtremolo	*	*Xtremolo	*	*	*	*
!	!	!	!	!	!	!	!	!	!	!	!	!	!	!	!	!	!LO:LB:g=original	!	!	!	!	!	!	!	!	!
=27	=27	=27	=27	=27	=27	=27	=27	=27	=27	=27	=27	=27	=27	=27	=27	=27	=27	=27	=27	=27	=27	=27	=27	=27	=27	=27
*	*	*	*	*tremolo	*	*	*	*	*	*	*	*	*	*	*	*	*	*	*	*	*	*	*	*	*	*
8A\L	.	8A/L	.	16a/LL	.	8cc#\L	.	8A\L	-os	.	4A\	-os	.	4e\	-os	.	8cc#\L	-os	.	4A/	.	4e\	.	4cc#\	4ee\	.
.	.	.	.	16a/	.	.	.	.	.	.	.	.	.	.	.	.	.	.	.	.	.	.	.	.	.	.
8B\	.	8B/	.	16a/	.	8dd\	.	8B\J	.	.	.	.	.	.	.	.	8dd\J	.	.	.	.	.	.	.	.	.
.	.	.	.	16a/	.	.	.	.	.	.	.	.	.	.	.	.	.	.	.	.	.	.	.	.	.	.
!	!	!	!	!	!	!	!	!	!	!	!	!	!	!LO:LB:g=original	!	!	!	!	!	!	!	!	!	!	!	!
8c#\	.	8c#/	.	16a/	.	8ee\	.	8c#\L	cu-	.	4e\	cu-	.	4a\	cu-	.	8ee\L	cu-	.	4r	.	4r	.	2a/	8r	.
.	.	.	.	16a/	.	.	.	.	.	.	.	.	.	.	.	.	.	.	.	.	.	.	.	.	.	.
8A\	.	8A/	.	16a/	.	8cc#\	.	8A\J	.	.	.	.	.	.	.	.	8cc#\J	.	.	.	.	.	.	.	8cc#\L	.
.	.	.	.	16a/	.	.	.	.	.	.	.	.	.	.	.	.	.	.	.	.	.	.	.	.	.	.
8B\	.	8B/	.	16a/	.	8dd\	.	8B\L	-jus	.	8d\L	-jus	.	4a\	-jus	.	8dd\L	-jus	.	4r	.	4r	.	.	8dd\	.
.	.	.	.	16a/	.	.	.	.	.	.	.	.	.	.	.	.	.	.	.	.	.	.	.	.	.	.
8c#\J	.	8c#/J	.	16a/	.	8ee\J	.	8c#\J	.	.	8c#\J	.	.	.	.	.	8ee\J	.	.	.	.	.	.	.	8ee\J	.
.	.	.	.	16a/JJ	.	.	.	.	.	.	.	.	.	.	.	.	.	.	.	.	.	.	.	.	.	.
!LO:LB:g=original	!	!LO:LB:g=original	!	!	!	!	!	!LO:LB:g=original	!	!	!	!	!	!	!	!	!	!	!	!	!	!	!	!LO:LB:g=original	!LO:LB:g=original	!
=28	=28	=28	=28	=28	=28	=28	=28	=28	=28	=28	=28	=28	=28	=28	=28	=28	=28	=28	=28	=28	=28	=28	=28	=28	=28	=28
*tremolo	*	*tremolo	*	*	*	*	*	*	*	*	*	*	*	*	*	*	*	*	*	*	*	*	*	*	*	*
!	!	!	!	!	!	!	!	!	!	!	!	!	!	!	!	!	!	!	!	!LO:TX:t=P:problem:brak 22 taktów	!	!	!	!	!	!
8d\L	.	8d\L	.	16a/LL	.	4ff# 4a 4d/	.	4d\	Re-	.	4d\	Re-	.	4a\	Re-	.	4ff#\	Re-	.	2.ryy	.	2f#\	.	2a/	2ff#\	.
.	.	.	.	16a/	.	.	.	.	.	.	.	.	.	.	.	.	.	.	.	.	.	.	.	.	.	.
8d\	.	8d\	.	16a/	.	.	.	.	.	.	.	.	.	.	.	.	.	.	.	.	.	.	.	.	.	.
.	.	.	.	16a/	.	.	.	.	.	.	.	.	.	.	.	.	.	.	.	.	.	.	.	.	.	.
.	.	.	.	.	.	8qqgg/	.	.	.	.	.	.	.	.	.	.	.	.	.	.	.	.	.	.	.	.
8d\	.	8d\	.	16a/	.	8ff#\L	.	4d\	-gni	.	4d\	-gni	.	4a\	-gni	.	4ff#\	-gni	.	.	.	.	.	.	.	.
.	.	.	.	16a/	.	.	.	.	.	.	.	.	.	.	.	.	.	.	.	.	.	.	.	.	.	.
8d\J	.	8d\J	.	16a/	.	16ee\L	.	.	.	.	.	.	.	.	.	.	.	.	.	.	.	.	.	.	.	.
*Xtremolo	*	*Xtremolo	*	*	*	*	*	*	*	*	*	*	*	*	*	*	*	*	*	*	*	*	*	*	*	*
.	.	.	.	16a/JJ	.	16ff#\JJ	.	.	.	.	.	.	.	.	.	.	.	.	.	.	.	.	.	.	.	.
.	.	.	.	.	.	8qqaa/	.	.	.	.	.	.	.	.	.	.	.	.	.	.	.	.	.	.	.	.
8B\L	.	8e\L	.	16dd\LL	.	8gg#X\L	.	4B\	non	.	4e\	n(on)	.	4g#X\	non	.	4dd\	non	.	.	.	4g#X\	.	4cc#\	4gg#X\	.
.	.	.	.	16dd\	.	.	.	.	.	.	.	.	.	.	.	.	.	.	.	.	.	.	.	.	.	.
8B\J	.	8e\J	.	16dd\	.	16ff#\L	.	.	.	.	.	.	.	.	.	.	.	.	.	.	.	.	.	.	.	.
.	.	.	.	16dd\JJ	.	16gg#\JJ	.	.	.	.	.	.	.	.	.	.	.	.	.	.	.	.	.	.	.	.
=29	=29	=29	=29	=29	=29	=29	=29	=29	=29	=29	=29	=29	=29	=29	=29	=29	=29	=29	=29	=29	=29	=29	=29	=29	=29	=29
*	*	*	*	*	*	*tremolo	*	*	*	*	*	*	*	*	*	*	*	*	*	*	*	*	*	*	*	*
16A\LL	.	16a\LL	.	16cc#\LL	.	16aa\LL	.	2A\	e-	.	2e\	e-	.	2a\	e-	.	2cc#\	e-	.	2.ryy	.	2.a\	.	2.cc#\	2.aa\	.
16B\	.	16b\	.	16cc#\	.	16aa\	.	.	.	.	.	.	.	.	.	.	.	.	.	.	.	.	.	.	.	.
16c#\	.	16cc#\	.	16cc#\	.	16aa\	.	.	.	.	.	.	.	.	.	.	.	.	.	.	.	.	.	.	.	.
16B\JJ	.	16b\JJ	.	16cc#\	.	16aa\	.	.	.	.	.	.	.	.	.	.	.	.	.	.	.	.	.	.	.	.
8A\L	.	8a\L	.	16cc#\	.	16aa\	.	.	.	.	.	.	.	.	.	.	.	.	.	.	.	.	.	.	.	.
.	.	.	.	16cc#\	.	16aa\	.	.	.	.	.	.	.	.	.	.	.	.	.	.	.	.	.	.	.	.
8A\	.	8a\	.	16cc#\	.	16aa\	.	.	.	.	.	.	.	.	.	.	.	.	.	.	.	.	.	.	.	.
.	.	.	.	16cc#\	.	16aa\	.	.	.	.	.	.	.	.	.	.	.	.	.	.	.	.	.	.	.	.
8A\	.	8a\	.	16cc#\	.	16aa\	.	4G#X\	-rit	.	4e\	-rit	.	4a\	-rit	.	4cc#\	-rit	.	.	.	.	.	.	.	.
.	.	.	.	16cc#\	.	16aa\	.	.	.	.	.	.	.	.	.	.	.	.	.	.	.	.	.	.	.	.
8G#X\J	.	8g#X\J	.	16cc#\	.	16aa\	.	.	.	.	.	.	.	.	.	.	.	.	.	.	.	.	.	.	.	.
.	.	.	.	16cc#\JJ	.	16aa\JJ	.	.	.	.	.	.	.	.	.	.	.	.	.	.	.	.	.	.	.	.
!	!	!	!	!	!	!	!	!	!	!	!LO:PB:g=original	!	!	!	!	!	!	!	!	!	!	!LO:LB:g=original	!	!	!	!
=30	=30	=30	=30	=30	=30	=30	=30	=30	=30	=30	=30	=30	=30	=30	=30	=30	=30	=30	=30	=30	=30	=30	=30	=30	=30	=30
16F#\LL	.	16f#\LL	.	16cc#\LL	.	16aa\LL	.	4F#\	non	.	4f#\	fi-	.	4a\	non	.	4cc#\	non	.	2.ryy	.	2a\	.	2.cc#\	2.aa\	.
!LO:SIC:v:s=16G#\	!	!LO:SIC:v:s=16g#\	!	!	!	!	!	!	!	!	!	!	!	!	!	!	!	!	!	!	!	!	!	!	!	!
16G\	.	16g\	.	16cc#\	.	16aa\	.	.	.	.	.	.	.	.	.	.	.	.	.	.	.	.	.	.	.	.
16A\	.	16a\	.	16cc#\	.	16aa\	.	.	.	.	.	.	.	.	.	.	.	.	.	.	.	.	.	.	.	.
!LO:SIC:v:s=16G#\JJ	!	!LO:SIC:v:s=16g#\JJ	!	!	!	!	!	!	!	!	!	!	!	!	!	!	!	!	!	!	!	!	!	!	!	!
16G\JJ	.	16g\JJ	.	16cc#\	.	16aa\	.	.	.	.	.	.	.	.	.	.	.	.	.	.	.	.	.	.	.	.
8F#\L	.	8f#\L	.	16cc#\	.	16aa\	.	4F#\	e-	.	4f#\	-nis	.	4a\	e-	.	4cc#\	e-	.	.	.	.	.	.	.	.
.	.	.	.	16cc#\	.	16aa\	.	.	.	.	.	.	.	.	.	.	.	.	.	.	.	.	.	.	.	.
8F#\	.	8f#\	.	16cc#\	.	16aa\	.	.	.	.	.	.	.	.	.	.	.	.	.	.	.	.	.	.	.	.
.	.	.	.	16cc#\	.	16aa\	.	.	.	.	.	.	.	.	.	.	.	.	.	.	.	.	.	.	.	.
8F#\	.	8f#\	.	16cc#\	.	16aa\	.	4E\	-rit	.	4f#\	e-	.	4a\	-rit	.	4cc#\	-rit	.	.	.	4r	.	.	.	.
.	.	.	.	16cc#\	.	16aa\	.	.	.	.	.	.	.	.	.	.	.	.	.	.	.	.	.	.	.	.
8E\J	.	8e\J	.	16cc#\	.	16aa\	.	.	.	.	.	.	.	.	.	.	.	.	.	.	.	.	.	.	.	.
.	.	.	.	16cc#\JJ	.	16aa\JJ	.	.	.	.	.	.	.	.	.	.	.	.	.	.	.	.	.	.	.	.
=31	=31	=31	=31	=31	=31	=31	=31	=31	=31	=31	=31	=31	=31	=31	=31	=31	=31	=31	=31	=31	=31	=31	=31	=31	=31	=31
!LO:TX:t=P:problem:mixed beam	!	!	!	!	!	!	!	!	!	!	!	!	!	!	!	!	!	!	!	!	!	!	!	!	!	!
8D\L	.	8d\L	.	16b\LL	.	16b\LL	.	4D\	fi-	.	4f#\	-rit	.	2a\	fi-	.	2.b\	fi-	.	2.ryy	.	4f#\	.	2.b\	2aa\	.
.	.	.	.	16b\	.	16aa\	.	.	.	.	.	.	.	.	.	.	.	.	.	.	.	.	.	.	.	.
8D\	.	8d\J	.	16b\	.	16b\	.	.	.	.	.	.	.	.	.	.	.	.	.	.	.	.	.	.	.	.
.	.	.	.	16b\	.	16aa\	.	.	.	.	.	.	.	.	.	.	.	.	.	.	.	.	.	.	.	.
*	*	*tremolo	*	*	*	*	*	*	*	*	*	*	*	*	*	*	*	*	*	*	*	*	*	*	*	*
8E\	.	8e\L	.	16b\	.	16b\	.	2E\	.	.	2e\	fi-	.	.	.	.	.	.	.	.	.	2e\	.	.	.	.
.	.	.	.	16b\	.	16aa\	.	.	.	.	.	.	.	.	.	.	.	.	.	.	.	.	.	.	.	.
8E\	.	8e\	.	16b\	.	16b\	.	.	.	.	.	.	.	.	.	.	.	.	.	.	.	.	.	.	.	.
.	.	.	.	16b\	.	16aa\JJ	.	.	.	.	.	.	.	.	.	.	.	.	.	.	.	.	.	.	.	.
*	*	*	*	*	*	*Xtremolo	*	*	*	*	*	*	*	*	*	*	*	*	*	*	*	*	*	*	*	*
8EE/	.	8e\	.	16b\	.	16b\LL	.	.	.	.	.	.	.	4g#X\	.	.	.	.	.	.	.	.	.	.	4gg#X\	.
.	.	.	.	16b\	.	16gg#X\	.	.	.	.	.	.	.	.	.	.	.	.	.	.	.	.	.	.	.	.
8EE/J	.	8e\J	.	16b\	.	16b\	.	.	.	.	.	.	.	.	.	.	.	.	.	.	.	.	.	.	.	.
.	.	.	.	16b\JJ	.	16gg#\JJ	.	.	.	.	.	.	.	.	.	.	.	.	.	.	.	.	.	.	.	.
*	*	*Xtremolo	*	*Xtremolo	*	*	*	*	*	*	*	*	*	*	*	*	*	*	*	*	*	*	*	*	*	*
=32	=32	=32	=32	=32	=32	=32	=32	=32	=32	=32	=32	=32	=32	=32	=32	=32	=32	=32	=32	=32	=32	=32	=32	=32	=32	=32
4AA/	.	4A/	.	4cc#\	.	4aa\	.	4AA/	-nis	.	4e\	-nis	.	4a\	-nis	.	4cc#\	-nis	.	2.ryy	.	4e\	.	4cc#\	4aa\	.
!	!	!	!LO:DY:a:t=p&colon;	!	!	!	!	!	!	!	!	!	!	!	!	!	!	!	!	!	!	!	!	!	!	!
!	!	!	!	!	!LO:DY:b	!	!	!	!	!	!	!	!	!	!	!	!	!	!	!	!	!	!	!	!	!
4A\	.	8r	p	8r	p	8r	.	4r	.	.	4r	.	.	4r	.	.	4r	.	.	.	.	4r	.	4r	4r	.
!	!	!	!	!	!	!	!LO:DY:b:t=pia	!	!	!	!	!	!	!	!	!	!	!	!	!	!	!	!	!	!	!
.	.	8A/L	.	8c#/L	.	8ee\L	p	.	.	.	.	.	.	.	.	.	.	.	.	.	.	.	.	.	.	.
4r	.	8B/	.	8c#/	.	8dd\	.	4r	.	.	4r	.	.	4r	.	.	4r	.	.	.	.	4r	.	4r	4r	.
.	.	8c#/J	.	8e/J	.	8cc#\J	.	.	.	.	.	.	.	.	.	.	.	.	.	.	.	.	.	.	.	.
!	!	!	!	!	!	!	!	!	!	!	!	!	!	!	!	!	!LO:PB:g=original	!	!	!	!	!	!	!	!	!
=33	=33	=33	=33	=33	=33	=33	=33	=33	=33	=33	=33	=33	=33	=33	=33	=33	=33	=33	=33	=33	=33	=33	=33	=33	=33	=33
!LO:TX:a:i:t=pedal et Violon	!	!LO:SIC:v:s=2d#\	!	!	!	!	!	!	!	!LO:DY:a:t=p&colon;	!	!	!LO:DY:a:t=p&colon;	!	!	!LO:DY:a:t=p&colon;	!	!	!LO:DY:a:t=p&colon;	!	!	!LO:TX:a:t=2	!	!LO:TX:a:t=19.	!LO:TX:a:t=19.	!
!	!LO:DY:b:t=pia.	!	!	!	!	!	!	!	!	!	!	!	!	!	!	!	!	!	!	!	!	!	!	!	!	!
2.D#X\	p	2d\	.	2f#/	.	(8cc#\L	.	2D#X\	et	p	2A\	Et	p	2f#\	et	p	2b\	Et	p	2.ryy	.	2.r	.	2.r	2.r	.
.	.	.	.	.	.	8b\)	.	.	.	.	.	.	.	.	.	.	.	.	.	.	.	.	.	.	.	.
.	.	.	.	.	.	8b'\	.	.	.	.	.	.	.	.	.	.	.	.	.	.	.	.	.	.	.	.
.	.	.	.	.	.	8b'\	.	.	.	.	.	.	.	.	.	.	.	.	.	.	.	.	.	.	.	.
.	.	4f#\	.	4a/	.	8b'\	.	4D#\	in	.	4A\	in	.	4f#\	in	.	4b\	in	.	.	.	.	.	.	.	.
.	.	.	.	.	.	8b'\J	.	.	.	.	.	.	.	.	.	.	.	.	.	.	.	.	.	.	.	.
!	!	!	!	!	!	!LO:PB:g=original	!	!	!	!	!	!	!	!	!	!	!	!	!	!	!	!	!	!	!	!
=34	=34	=34	=34	=34	=34	=34	=34	=34	=34	=34	=34	=34	=34	=34	=34	=34	=34	=34	=34	=34	=34	=34	=34	=34	=34	=34
2.E\	.	2.B/	.	4g#X/	.	(8b\L	.	4.E\	Spi-	.	4.G#X/	Spi-	.	4.g#X\	Spi-	.	4.b\	Spi-	.	2.ryy	.	2.r	.	2.r	2.r	.
.	.	.	.	.	.	8ee\)	.	.	.	.	.	.	.	.	.	.	.	.	.	.	.	.	.	.	.	.
.	.	.	.	4g#/	.	(8dd#X\	.	.	.	.	.	.	.	.	.	.	.	.	.	.	.	.	.	.	.	.
.	.	.	.	.	.	8ee\)	.	8E\	-ri-	.	8B\	-ri-	.	8g#\	-ri-	.	8b\	-ri-	.	.	.	.	.	.	.	.
.	.	.	.	4g#/	.	(8dd#\	.	4E\	-tum	.	4B\	-tum	.	4g#\	-tum	.	4b\	-tum	.	.	.	.	.	.	.	.
.	.	.	.	.	.	8ee\J)	.	.	.	.	.	.	.	.	.	.	.	.	.	.	.	.	.	.	.	.
=35	=35	=35	=35	=35	=35	=35	=35	=35	=35	=35	=35	=35	=35	=35	=35	=35	=35	=35	=35	=35	=35	=35	=35	=35	=35	=35
!	!	!	!	!	!	!	!	!	!	!	!	!	!	!	!	!	!	!	!	!	!	!	!LO:DY:a:t=p&colon;	!	!	!
2.G#X\	.	2.B/	.	2.e/	.	(8ee\L	.	2G#X\	San-	.	2d\	San-	.	2e\	S(an)-	.	2b\	S(an)-	.	2.ryy	.	2.e\	p	2.r	2.r	.
.	.	.	.	.	.	8ddn\)	.	.	.	.	.	.	.	.	.	.	.	.	.	.	.	.	.	.	.	.
.	.	.	.	.	.	8dd|\	.	.	.	.	.	.	.	.	.	.	.	.	.	.	.	.	.	.	.	.
.	.	.	.	.	.	8dd|\	.	.	.	.	.	.	.	.	.	.	.	.	.	.	.	.	.	.	.	.
.	.	.	.	.	.	8dd|\	.	4G#\	-ctum	.	4d\	-ctum	.	4e\	-ctum	.	4b\	-ctum	.	.	.	.	.	.	.	.
.	.	.	.	.	.	8dd|\J	.	.	.	.	.	.	.	.	.	.	.	.	.	.	.	.	.	.	.	.
!	!	!LO:LB:g=original	!	!	!	!	!	!	!	!	!	!	!	!LO:LB:g=original	!	!	!	!	!	!	!	!	!	!	!	!
=36	=36	=36	=36	=36	=36	=36	=36	=36	=36	=36	=36	=36	=36	=36	=36	=36	=36	=36	=36	=36	=36	=36	=36	=36	=36	=36
2.A\	.	2.A/	.	2.e/	.	(8dd\L	.	4.A\	Do-	.	4.c#\	Do-	.	4.e\	Do-	.	4.cc#\	Do-	.	2.ryy	.	4e\	.	2.r	2.r	.
.	.	.	.	.	.	8cc#\)	.	.	.	.	.	.	.	.	.	.	.	.	.	.	.	.	.	.	.	.
.	.	.	.	.	.	8cc#|\	.	.	.	.	.	.	.	.	.	.	.	.	.	.	.	4r	.	.	.	.
.	.	.	.	.	.	8cc#|\	.	8A\	-mi-	.	8A\	-mi-	.	8e\	-mi-	.	8cc#\	-mi-	.	.	.	.	.	.	.	.
.	.	.	.	.	.	(8b\	.	4A\	-num	.	4A\	-num	.	4e\	-num	.	4cc#\	-num	.	.	.	4r	.	.	.	.
.	.	.	.	.	.	8cc#\J)	.	.	.	.	.	.	.	.	.	.	.	.	.	.	.	.	.	.	.	.
!	!	!	!	!	!	!	!	!LO:LB:g=original	!	!	!	!	!	!	!	!	!	!	!	!	!	!	!	!	!	!
=37	=37	=37	=37	=37	=37	=37	=37	=37	=37	=37	=37	=37	=37	=37	=37	=37	=37	=37	=37	=37	=37	=37	=37	=37	=37	=37
!	!	!	!	!	!	!	!	!	!	!	!	!	!	!	!	!	!	!	!	!	!	!LO:TX:a:t=5	!	!	!	!
2.Gn\	.	2.e\	.	2.a/	.	8r	.	2Gn\	et	.	2A\	et	.	2e\	et	.	2cc#\	et	.	2.ryy	.	2.r	.	2.r	2.r	.
.	.	.	.	.	.	8cc#\L	.	.	.	.	.	.	.	.	.	.	.	.	.	.	.	.	.	.	.	.
.	.	.	.	.	.	8cc#\	.	.	.	.	.	.	.	.	.	.	.	.	.	.	.	.	.	.	.	.
.	.	.	.	.	.	8cc#\	.	.	.	.	.	.	.	.	.	.	.	.	.	.	.	.	.	.	.	.
.	.	.	.	.	.	8ee\	.	4G\	vi-	.	4A\	vi-	.	4e\	vi-	.	4cc#\	vi-	.	.	.	.	.	.	.	.
.	.	.	.	.	.	8cc#\J	.	.	.	.	.	.	.	.	.	.	.	.	.	.	.	.	.	.	.	.
!	!	!	!	!LO:LB:g=original	!	!	!	!	!	!	!	!	!	!	!	!	!	!	!	!	!	!	!	!	!	!
=38	=38	=38	=38	=38	=38	=38	=38	=38	=38	=38	=38	=38	=38	=38	=38	=38	=38	=38	=38	=38	=38	=38	=38	=38	=38	=38
2.F#\	.	2.f#\	.	2.a#X/	.	8r	.	2F#\	-vi-	.	2A#X\	-vi-	.	2f#\	-vi-	.	2cc#\	-vi-	.	2.ryy	.	2.r	.	2.r	2.r	.
.	.	.	.	.	.	8cc#\L	.	.	.	.	.	.	.	.	.	.	.	.	.	.	.	.	.	.	.	.
.	.	.	.	.	.	8cc#\	.	.	.	.	.	.	.	.	.	.	.	.	.	.	.	.	.	.	.	.
.	.	.	.	.	.	8cc#\	.	.	.	.	.	.	.	.	.	.	.	.	.	.	.	.	.	.	.	.
.	.	.	.	.	.	8ff#\	.	4F#\	-fi-	.	4A#\	-fi-	.	4f#\	-fi-	.	4cc#\	-fi-	.	.	.	.	.	.	.	.
.	.	.	.	.	.	8ee\J	.	.	.	.	.	.	.	.	.	.	.	.	.	.	.	.	.	.	.	.
!LO:LB:g=original	!	!	!	!	!	!	!	!	!	!	!	!	!	!	!	!	!	!	!	!	!	!	!	!	!	!
=39	=39	=39	=39	=39	=39	=39	=39	=39	=39	=39	=39	=39	=39	=39	=39	=39	=39	=39	=39	=39	=39	=39	=39	=39	=39	=39
2.B\	.	2.B/	.	2.f#/	.	8r	.	4B\	-can-	.	4B\	-can-	.	4f#\	-can-	.	4dd\	-can-	.	2.ryy	.	2.r	.	2.r	2.r	.
.	.	.	.	.	.	8dd\L	.	.	.	.	.	.	.	.	.	.	.	.	.	.	.	.	.	.	.	.
.	.	.	.	.	.	8dd\	.	4B\	-tem	.	4B\	-tem	.	4f#\	-tem	.	4dd\	-tem	.	.	.	.	.	.	.	.
.	.	.	.	.	.	8dd\	.	.	.	.	.	.	.	.	.	.	.	.	.	.	.	.	.	.	.	.
!	!	!	!	!	!	!	!	!	!	!	!	!	!	!	!	!	!LO:SIC:v:l:s=qui	!	!	!	!	!	!	!	!	!
.	.	.	.	.	.	8cc#\	.	8B\	qui	.	8B\	qui	.	8f#\	qui	.	8dd\	qvi	.	.	.	.	.	.	.	.
.	.	.	.	.	.	8dd\J	.	8B\	ex	.	8B\	ex	.	8f#\	ex	.	8dd\	ex	.	.	.	.	.	.	.	.
!	!	!	!	!	!	!	!	!	!	!	!LO:LB:g=original	!	!	!	!	!	!	!	!	!	!	!	!	!	!	!
=40	=40	=40	=40	=40	=40	=40	=40	=40	=40	=40	=40	=40	=40	=40	=40	=40	=40	=40	=40	=40	=40	=40	=40	=40	=40	=40
2.An\	.	2.B/	.	2.f#/	.	8r	.	2An\	Pa-	.	2B\	Pa-	.	2f#\	Pa-	.	2dd#X\	Pa-	.	2.ryy	.	2.r	.	2.r	2.r	.
.	.	.	.	.	.	8dd#X\L	.	.	.	.	.	.	.	.	.	.	.	.	.	.	.	.	.	.	.	.
.	.	.	.	.	.	8dd#\	.	.	.	.	.	.	.	.	.	.	.	.	.	.	.	.	.	.	.	.
.	.	.	.	.	.	8dd#\	.	.	.	.	.	.	.	.	.	.	.	.	.	.	.	.	.	.	.	.
.	.	.	.	.	.	8ff#\	.	4A\	-tre	.	4B\	-tre	.	4f#\	-tre	.	4dd#\	-tre	.	.	.	.	.	.	.	.
.	.	.	.	.	.	8dd#\J	.	.	.	.	.	.	.	.	.	.	.	.	.	.	.	.	.	.	.	.
!	!	!	!	!	!	!LO:LB:g=original	!	!	!	!	!	!	!	!	!	!	!	!	!	!	!	!	!	!	!	!
=41	=41	=41	=41	=41	=41	=41	=41	=41	=41	=41	=41	=41	=41	=41	=41	=41	=41	=41	=41	=41	=41	=41	=41	=41	=41	=41
2.G\	.	2.e\	.	2.b\	.	8r	.	4.G\	fi-	.	4.B\	fi-	.	4.g\	fi-	.	4.ee\	Fi-	.	2.ryy	.	2.r	.	2.r	2.r	.
.	.	.	.	.	.	8ee\L	.	.	.	.	.	.	.	.	.	.	.	.	.	.	.	.	.	.	.	.
.	.	.	.	.	.	8ee\	.	.	.	.	.	.	.	.	.	.	.	.	.	.	.	.	.	.	.	.
.	.	.	.	.	.	8ee\	.	8G\	-li-	.	8B\	-li-	.	8g\	-li-	.	8ee\	-li-	.	.	.	.	.	.	.	.
.	.	.	.	.	.	8gg\	.	4G\	-o-	.	4B\	-o-	.	4g\	-o-	.	4ee\	-o-	.	.	.	.	.	.	.	.
.	.	.	.	.	.	8ee\J	.	.	.	.	.	.	.	.	.	.	.	.	.	.	.	.	.	.	.	.
!	!	!	!	!	!	!	!	!	!	!	!	!	!	!	!	!	!LO:LB:g=original	!	!	!	!	!	!	!	!	!
=42	=42	=42	=42	=42	=42	=42	=42	=42	=42	=42	=42	=42	=42	=42	=42	=42	=42	=42	=42	=42	=42	=42	=42	=42	=42	=42
!	!	!	!	!	!	!	!	!	!	!	!	!	!	!	!	!	!LO:SIC:v:l:s=-que	!	!	!	!	!	!LO:DY:a:t=p&colon;	!	!	!
2.G\	.	2.e\	.	2.a\	.	8r	.	2G\	-que	.	2A\	-que	.	2e\	-que	.	2cc#\	-qve	.	2.ryy	.	2.e\	p	2.r	2.r	.
.	.	.	.	.	.	8cc#\L	.	.	.	.	.	.	.	.	.	.	.	.	.	.	.	.	.	.	.	.
.	.	.	.	.	.	8cc#\	.	.	.	.	.	.	.	.	.	.	.	.	.	.	.	.	.	.	.	.
.	.	.	.	.	.	8cc#\	.	.	.	.	.	.	.	.	.	.	.	.	.	.	.	.	.	.	.	.
.	.	.	.	.	.	8ee\	.	4G\	pro-	.	4A\	pro-	.	4e\	pro-	.	4cc#\	pro-	.	.	.	.	.	.	.	.
.	.	.	.	.	.	8cc#\J	.	.	.	.	.	.	.	.	.	.	.	.	.	.	.	.	.	.	.	.
=43	=43	=43	=43	=43	=43	=43	=43	=43	=43	=43	=43	=43	=43	=43	=43	=43	=43	=43	=43	=43	=43	=43	=43	=43	=43	=43
!	!	!	!	!	!	!	!	!	!	!	!	!	!	!	!	!	!	!	!	!	!	!LO:SIC:v:s=4d&colon;t=lub f#	!	!	!	!
2.F#\	.	2.d\	.	2.a\	.	8r	.	4F#\	-ce-	.	4A\	-ce-	.	4f#\	-ce-	.	4dd\	-ce-	.	2.ryy	.	4e\	.	2.r	2.r	.
.	.	.	.	.	.	8dd\L	.	.	.	.	.	.	.	.	.	.	.	.	.	.	.	.	.	.	.	.
.	.	.	.	.	.	8dd\	.	4F#\	-dit	.	4A\	-dit	.	4f#\	-dit	.	4dd\	-dit	.	.	.	4r	.	.	.	.
.	.	.	.	.	.	8dd\	.	.	.	.	.	.	.	.	.	.	.	.	.	.	.	.	.	.	.	.
!	!	!	!	!	!	!	!	!	!	!	!	!	!	!LO:LB:g=original	!	!	!LO:SIC:v:l:s=qui	!	!	!	!	!	!	!	!	!
.	.	.	.	.	.	8ff#\	.	8F#\	qui	.	8A\	qui	.	8f#\	qui	.	8dd\	qvi	.	.	.	4r	.	.	.	.
.	.	.	.	.	.	8dd\J	.	8F#\	cum	.	8A\	cum	.	8f#\	cum	.	8dd\	cum	.	.	.	.	.	.	.	.
=44	=44	=44	=44	=44	=44	=44	=44	=44	=44	=44	=44	=44	=44	=44	=44	=44	=44	=44	=44	=44	=44	=44	=44	=44	=44	=44
!	!	!	!	!	!	!	!	!	!	!	!	!	!	!	!	!	!	!	!	!	!	!LO:TX:a:t=2	!	!	!	!
2.F#\	.	2.d\	.	2.g/	.	8r	.	4F#\	Pa-	.	4G/	Pa-	.	4d\	Pa-	.	4b\	Pa-	.	2.ryy	.	2.r	.	2.r	2.r	.
.	.	.	.	.	.	8b\L	.	.	.	.	.	.	.	.	.	.	.	.	.	.	.	.	.	.	.	.
.	.	.	.	.	.	8b\	.	4F#\	-tre	.	4G/	-tre	.	4d\	-tre	.	4b\	-tre	.	.	.	.	.	.	.	.
.	.	.	.	.	.	8b\	.	.	.	.	.	.	.	.	.	.	.	.	.	.	.	.	.	.	.	.
.	.	.	.	.	.	8dd\	.	4F#\	et	.	4G/	et	.	4d\	et	.	4b\	et	.	.	.	.	.	.	.	.
.	.	.	.	.	.	8b\J	.	.	.	.	.	.	.	.	.	.	.	.	.	.	.	.	.	.	.	.
!	!	!	!	!	!	!	!	!LO:LB:g=original	!	!	!	!	!	!	!	!	!	!	!	!	!	!	!	!	!	!
=45	=45	=45	=45	=45	=45	=45	=45	=45	=45	=45	=45	=45	=45	=45	=45	=45	=45	=45	=45	=45	=45	=45	=45	=45	=45	=45
2.E\	.	2.c#\	.	2.g/	.	8r	.	8E\	Fi-	.	4G/	Fi-	.	4e\	Fi-	.	8cc#\	Fi-	.	2.ryy	.	2.r	.	2.r	2.r	.
.	.	.	.	.	.	8cc#\L	.	8E\	-li-	.	.	.	.	.	.	.	8cc#\	-li-	.	.	.	.	.	.	.	.
.	.	.	.	.	.	8cc#\	.	4E\	-o	.	8G/	-li-	.	8e\	-li-	.	4cc#\	-o	.	.	.	.	.	.	.	.
.	.	.	.	.	.	8cc#\	.	.	.	.	8G/	-o	.	8e\	-o	.	.	.	.	.	.	.	.	.	.	.
.	.	.	.	.	.	8ee\	.	8E\	si-	.	8G/	si-	.	8e\	Si-	.	8cc#\	Si-	.	.	.	.	.	.	.	.
.	.	.	.	.	.	8cc#\J	.	8E\	-mul	.	8G/	-mul	.	8e\	-mul	.	8cc#\	-mul	.	.	.	.	.	.	.	.
=46	=46	=46	=46	=46	=46	=46	=46	=46	=46	=46	=46	=46	=46	=46	=46	=46	=46	=46	=46	=46	=46	=46	=46	=46	=46	=46
2.E\	.	2.c#\	.	2.f#/	.	8r	.	2E\	a-	.	2c#\	a-	.	2f#\	a-	.	2a#X\	A-	.	2.ryy	.	2.f#\	.	2.r	2.r	.
.	.	.	.	.	.	8a#X\L	.	.	.	.	.	.	.	.	.	.	.	.	.	.	.	.	.	.	.	.
.	.	.	.	.	.	8a#\	.	.	.	.	.	.	.	.	.	.	.	.	.	.	.	.	.	.	.	.
.	.	.	.	.	.	8a#\	.	.	.	.	.	.	.	.	.	.	.	.	.	.	.	.	.	.	.	.
.	.	.	.	.	.	8cc#\	.	4E\	-do-	.	4c#\	-do-	.	4f#\	-do-	.	4a#\	-do-	.	.	.	.	.	.	.	.
.	.	.	.	.	.	8a#\J	.	.	.	.	.	.	.	.	.	.	.	.	.	.	.	.	.	.	.	.
=47	=47	=47	=47	=47	=47	=47	=47	=47	=47	=47	=47	=47	=47	=47	=47	=47	=47	=47	=47	=47	=47	=47	=47	=47	=47	=47
2.D\	.	2.d\	.	2.f#/	.	8r	.	4D\	-ra-	.	4d\	-ra-	.	4f#\	-ra-	.	4b\	-ra-	.	2.ryy	.	4f#\	.	2.r	2.r	.
.	.	.	.	.	.	8b\L	.	.	.	.	.	.	.	.	.	.	.	.	.	.	.	.	.	.	.	.
.	.	.	.	.	.	8b\	.	4D\	-tur	.	4B\	-tur	.	4f#\	-tur	.	4b\	-tur	.	.	.	4r	.	.	.	.
.	.	.	.	.	.	8b\	.	.	.	.	.	.	.	.	.	.	.	.	.	.	.	.	.	.	.	.
.	.	.	.	.	.	8dd\	.	4D\	et	.	4B\	et	.	4f#\	et	.	4b\	et	.	.	.	4r	.	.	.	.
.	.	.	.	.	.	8b\J	.	.	.	.	.	.	.	.	.	.	.	.	.	.	.	.	.	.	.	.
!	!	!	!	!	!	!LO:LB:g=original	!	!	!	!	!	!	!	!	!	!	!	!	!	!	!	!	!	!	!	!
=48	=48	=48	=48	=48	=48	=48	=48	=48	=48	=48	=48	=48	=48	=48	=48	=48	=48	=48	=48	=48	=48	=48	=48	=48	=48	=48
!	!	!	!	!	!	!	!	!	!	!	!	!	!	!	!	!	!	!	!	!	!	!LO:TX:a:t=1	!	!	!	!
2.E#X\	.	2.e#X\	.	2.g#X/	.	8r	.	8E#X\	con-	.	8B\	con-	.	8g#X\	con-	.	8b\	con-	.	2.ryy	.	2.r	.	2.r	2.r	.
.	.	.	.	.	.	8b\L	.	8E#\	-glo-	.	8B\	-glo-	.	8g#\	-glo-	.	8b\	-glo-	.	.	.	.	.	.	.	.
!	!	!	!	!	!	!	!	!	!	!	!	!	!	!	!	!	!LO:LB:g=original	!	!	!	!	!	!	!	!	!
.	.	.	.	.	.	8b\	.	4E#\	-ri-	.	4B\	-ri-	.	4g#\	-ri-	.	4b\	-ri-	.	.	.	.	.	.	.	.
.	.	.	.	.	.	8b\	.	.	.	.	.	.	.	.	.	.	.	.	.	.	.	.	.	.	.	.
.	.	.	.	.	.	8dd\	.	4E#\	-fi-	.	4B\	-fi-	.	4g#\	-fi-	.	4b\	-fi-	.	.	.	.	.	.	.	.
.	.	.	.	.	.	8b\J	.	.	.	.	.	.	.	.	.	.	.	.	.	.	.	.	.	.	.	.
!	!	!	!	!	!	!	!	!	!	!	!LO:LB:g=original	!	!	!	!	!	!	!	!	!	!	!	!	!	!	!
=49	=49	=49	=49	=49	=49	=49	=49	=49	=49	=49	=49	=49	=49	=49	=49	=49	=49	=49	=49	=49	=49	=49	=49	=49	=49	=49
!	!	!	!	!LO:SIC:v:s=2.a#/	!	!	!	!	!	!	!	!	!	!	!	!	!	!	!	!	!	!	!	!	!	!
2.F#\	.	2.f#\	.	2.a/	.	8r	.	4F#\	-ca-	.	4A#X\	-ca-	.	4f#\	-ca-	.	4a#X\	-ca-	.	2.ryy	.	4f#\	.	2.r	2.r	.
.	.	.	.	.	.	8a#X\L	.	.	.	.	.	.	.	.	.	.	.	.	.	.	.	.	.	.	.	.
.	.	.	.	.	.	8ff#\	.	4F#\	-tur	.	4c#\	-tur	.	4f#\	-tur	.	4a#\	-tur	.	.	.	4r	.	.	.	.
.	.	.	.	.	.	8ff#\	.	.	.	.	.	.	.	.	.	.	.	.	.	.	.	.	.	.	.	.
.	.	.	.	.	.	8ee#X\	.	8F#\	qui	.	8c#\	qui	.	8f#\	qui	.	8a#\	qui	.	.	.	4r	.	.	.	.
.	.	.	.	.	.	8ff#\J	.	8F#\	lo-	.	8c#\	lo-	.	8f#\	lo-	.	8a#\	lo-	.	.	.	.	.	.	.	.
!	!	!	!	!	!	!	!	!	!	!	!	!	!	!LO:LB:g=original	!	!	!	!	!	!	!	!	!	!	!	!
=50	=50	=50	=50	=50	=50	=50	=50	=50	=50	=50	=50	=50	=50	=50	=50	=50	=50	=50	=50	=50	=50	=50	=50	=50	=50	=50
!	!	!	!	!	!	!	!	!	!	!	!	!	!	!	!	!	!	!	!	!LO:TX:a:t=1	!	!LO:TX:a:t=1	!	!	!	!
2.G\	.	2.gn\	.	2.b/	.	8r	.	8G\	-cu-	.	8B\	-cu-	.	8e#X\	-cu-	.	8b\	-cu-	.	2.r	.	2.r	.	2.r	2.r	.
.	.	.	.	.	.	8ee#X\L	.	8G\	-tus	.	8B\	-tus	.	8e#\	-tus	.	8b\	-tus	.	.	.	.	.	.	.	.
.	.	.	.	.	.	8ee#\	.	4G\	est	.	4B\	est	.	4e#\	est	.	4b\	est	.	.	.	.	.	.	.	.
.	.	.	.	.	.	8ee#\	.	.	.	.	.	.	.	.	.	.	.	.	.	.	.	.	.	.	.	.
.	.	.	.	.	.	8ee#\	.	8G\	per	.	8d\	per	.	8e#\	per	.	8b\	per	.	.	.	.	.	.	.	.
.	.	.	.	.	.	8ee#\J	.	8G\	pro-	.	8B\	pro-	.	8e#\	pro-	.	8b\	pro-	.	.	.	.	.	.	.	.
!	!	!	!	!	!	!	!	!LO:LB:g=original	!	!	!	!	!	!	!	!	!	!	!	!	!	!LO:LB:g=original	!	!	!	!
=51	=51	=51	=51	=51	=51	=51	=51	=51	=51	=51	=51	=51	=51	=51	=51	=51	=51	=51	=51	=51	=51	=51	=51	=51	=51	=51
4F#\	.	4f#\	.	4a#X/	.	4ff#\	.	4F#\	-phe-	.	4c#\	-phe-	.	4f#\	-phe-	.	4a#X\	-phe-	.	4F#/	.	4f#\	.	2.r	2.r	.
4F#\	.	4F#/	.	4a#/	.	4f#/	.	4F#\	-tas	.	4c#\	-tas	.	4f#\	-tas	.	4a#\	-tas	.	4F#/	.	4f#\	.	.	.	.
!	!	!	!LO:DY:a:t=fo	!	!	!	!	!	!	!	!	!	!	!	!	!	!	!	!	!	!	!	!	!	!	!
4r	.	4r	f	4r	.	4r	.	4r	.	.	4r	.	.	4r	.	.	4r	.	.	4r	.	4r	.	.	.	.
!	!	!LO:LB:g=original	!	!LO:LB:g=original	!	!	!	!	!	!	!	!	!	!	!	!	!	!	!	!	!	!	!	!	!	!
=52	=52	=52	=52	=52	=52	=52	=52	=52	=52	=52	=52	=52	=52	=52	=52	=52	=52	=52	=52	=52	=52	=52	=52	=52	=52	=52
*	*	*tremolo	*	*tremolo	*	*tremolo	*	*	*	*	*	*	*	*	*	*	*	*	*	*	*	*	*	*	*	*
!LO:TX:a:i:t=Tutti	!	!	!	!	!	!	!	!	!	!	!	!	!	!	!	!	!	!	!	!	!	!	!	!	!	!
!LO:TX:t=P:problem:mixed beam	!	!	!	!	!	!	!	!	!	!LO:DY:a:t=for	!	!	!LO:DY:a:t=for	!	!	!LO:DY:a:t=for	!	!	!LO:DY:a:t=fort	!	!	!	!LO:DY:a:t=for&colon;	!	!	!
!	!	!	!	!	!	!	!LO:DY:b:t=for	!	!	!	!	!	!	!	!	!	!	!	!	!	!	!	!	!	!	!
!	!	!	!	!	!LO:DY:b:t=for	!	!	!	!	!	!	!	!	!	!	!	!	!	!	!	!	!	!	!	!	!
8BB/L	.	8B/L	.	16f#/LL	f	16dd#X\LL	f	4B\	Et	f	4B\	Et	f	4f#\	Et	f	4dd#X\	Et	f	4F#/	.	4f#\	f	2.dd#X\	2.ff#\	.
.	.	.	.	16b/	.	16dd#X\	.	.	.	.	.	.	.	.	.	.	.	.	.	.	.	.	.	.	.	.
8BB/	.	8B/	.	16f#/	.	16dd#X\	.	.	.	.	.	.	.	.	.	.	.	.	.	.	.	.	.	.	.	.
.	.	.	.	16b/	.	16dd#X\	.	.	.	.	.	.	.	.	.	.	.	.	.	.	.	.	.	.	.	.
!LO:TX:a:i:t=organo	!	!	!	!	!	!	!	!	!	!	!	!	!	!	!	!	!	!	!	!	!	!	!	!	!	!
8B\	.	8B/	.	16f#/	.	16dd#X\	.	4B\	u-	.	4B\	u-	.	4f#\	u-	.	4dd#\	u-	.	4F#/	.	4f#\	.	.	.	.
.	.	.	.	16b/	.	16dd#X\	.	.	.	.	.	.	.	.	.	.	.	.	.	.	.	.	.	.	.	.
8B\	.	8B/	.	16f#/	.	16dd#X\	.	.	.	.	.	.	.	.	.	.	.	.	.	.	.	.	.	.	.	.
.	.	.	.	16b/	.	16dd#X\	.	.	.	.	.	.	.	.	.	.	.	.	.	.	.	.	.	.	.	.
!	!	!	!	!	!	!	!	!	!	!	!	!	!	!	!	!	!	!	!	!	!	!LO:N:vis=2	!	!	!	!
8A\	.	8B/	.	16f#/	.	16dd#X\	.	4An\	-nam	.	4B\	-nam	.	4f#\	-nam	.	4dd#\	-nam	.	4f#\	.	4f#\	.	.	.	.
.	.	.	.	16b/	.	16dd#X\	.	.	.	.	.	.	.	.	.	.	.	.	.	.	.	.	.	.	.	.
8A\J	.	8B/J	.	16f#/	.	16dd#X\	.	.	.	.	.	.	.	.	.	.	.	.	.	.	.	.	.	.	.	.
.	.	.	.	16b/JJ	.	16dd#X\JJ	.	.	.	.	.	.	.	.	.	.	.	.	.	.	.	.	.	.	.	.
*	*	*	*	*	*	*Xtremolo	*	*	*	*	*	*	*	*	*	*	*	*	*	*	*	*	*	*	*	*
=53	=53	=53	=53	=53	=53	=53	=53	=53	=53	=53	=53	=53	=53	=53	=53	=53	=53	=53	=53	=53	=53	=53	=53	=53	=53	=53
8Gn\L	.	8B/L	.	16b\LL	.	16een\LL	.	4G\	San-	.	4B\	S(an)-	.	4g\	S(an-	.	4ee\	San-	.	4e\	.	4g\	.	4ee\	4gg\	.
.	.	.	.	16b\	.	16ff#\	.	.	.	.	.	.	.	.	.	.	.	.	.	.	.	.	.	.	.	.
8G\	.	8B/	.	16b\	.	16gg\	.	.	.	.	.	.	.	.	.	.	.	.	.	.	.	.	.	.	.	.
.	.	.	.	16b\JJ	.	16aa\JJ	.	.	.	.	.	.	.	.	.	.	.	.	.	.	.	.	.	.	.	.
8E\	.	8B/	.	16g/LL	.	16bb\LL	.	8E\	-ctam	.	8B\	-ctam	.	8g\	-c)tam	.	8ee\	-ctam	.	4r	.	4r	.	4r	4r	.
.	.	.	.	16g/	.	16aa\	.	.	.	.	.	.	.	.	.	.	.	.	.	.	.	.	.	.	.	.
8E\	.	8B/	.	16g/	.	16gg\	.	8E\	Ca-	.	8B\	Ca-	.	8g\	Ca-	.	8ee\	Ca-	.	.	.	.	.	.	.	.
.	.	.	.	16g/JJ	.	16ff#\JJ	.	.	.	.	.	.	.	.	.	.	.	.	.	.	.	.	.	.	.	.
8G\	.	8B/	.	16b/LL	.	16ggn\LL	.	8G\	-tho-	.	8B\	-tho-	.	8g\	-tho-	.	8ee\	-tho-	.	4r	.	4r	.	4r	4r	.
.	.	.	.	16b/	.	16ff#\	.	.	.	.	.	.	.	.	.	.	.	.	.	.	.	.	.	.	.	.
8G\J	.	8B/J	.	16b/	.	16ee\	.	8G\	-li-	.	8B\	-li-	.	8g\	-li-	.	8ee\	-li-	.	.	.	.	.	.	.	.
.	.	.	.	16b/JJ	.	16dd\JJ	.	.	.	.	.	.	.	.	.	.	.	.	.	.	.	.	.	.	.	.
!LO:LB:g=original	!	!	!	!	!	!	!	!	!	!	!	!	!	!	!	!	!LO:LB:g=original	!	!	!	!	!	!	!	!	!
=54	=54	=54	=54	=54	=54	=54	=54	=54	=54	=54	=54	=54	=54	=54	=54	=54	=54	=54	=54	=54	=54	=54	=54	=54	=54	=54
*tremolo	*	*	*	*	*	*tremolo	*	*	*	*	*	*	*	*	*	*	*	*	*	*	*	*	*	*	*	*
8A\L	.	8A/L	.	16e/LL	.	16cc#\LL	.	8A\	-cam	.	8A\	-cam	.	8e\	-cam	.	8cc#\	-cam	.	4A/	.	4e\	.	2.cc#\	2.ee\	.
.	.	.	.	16a/	.	16cc#\	.	.	.	.	.	.	.	.	.	.	.	.	.	.	.	.	.	.	.	.
8A\	.	8A/	.	16e/	.	16cc#\	.	8A\	et	.	8A\	et	.	8e\	et	.	8cc#\	et	.	.	.	.	.	.	.	.
.	.	.	.	16a/	.	16cc#\	.	.	.	.	.	.	.	.	.	.	.	.	.	.	.	.	.	.	.	.
8A\	.	8A/	.	16e/	.	16cc#\	.	4A\	A-	.	4A\	A-	.	4e\	A-	.	4cc#\	A-	.	4A/	.	4e\	.	.	.	.
.	.	.	.	16a/	.	16cc#\	.	.	.	.	.	.	.	.	.	.	.	.	.	.	.	.	.	.	.	.
8A\J	.	8A/	.	16e/	.	16cc#\	.	.	.	.	.	.	.	.	.	.	.	.	.	.	.	.	.	.	.	.
.	.	.	.	16a/	.	16cc#\	.	.	.	.	.	.	.	.	.	.	.	.	.	.	.	.	.	.	.	.
*Xtremolo	*	*	*	*	*	*	*	*	*	*	*	*	*	*	*	*	*	*	*	*	*	*	*	*	*	*
8G\L	.	8A/	.	16e/	.	16cc#\	.	4G\	-pos-	.	4A\	-pos-	.	4e\	-pos-	.	4cc#\	-po-	.	4A/	.	4e\	.	.	.	.
.	.	.	.	16a/	.	16cc#\	.	.	.	.	.	.	.	.	.	.	.	.	.	.	.	.	.	.	.	.
8G\J	.	8A/J	.	16e/	.	16cc#\	.	.	.	.	.	.	.	.	.	.	.	.	.	.	.	.	.	.	.	.
.	.	.	.	16a/JJ	.	16cc#\JJ	.	.	.	.	.	.	.	.	.	.	.	.	.	.	.	.	.	.	.	.
*	*	*	*	*	*	*Xtremolo	*	*	*	*	*	*	*	*	*	*	*	*	*	*	*	*	*	*	*	*
!	!	!	!	!	!	!LO:LB:g=original	!	!	!	!	!	!	!	!	!	!	!	!	!	!	!	!	!	!	!	!
=55	=55	=55	=55	=55	=55	=55	=55	=55	=55	=55	=55	=55	=55	=55	=55	=55	=55	=55	=55	=55	=55	=55	=55	=55	=55	=55
*tremolo	*	*	*	*	*	*	*	*	*	*	*	*	*	*	*	*	*	*	*	*	*	*	*	*	*	*
8F#\L	.	8A/L	.	16a/LL	.	16dd\LL	.	8F#\	-to-	.	8A\	-to-	.	8f#\	-to-	.	8dd\	-ſto-	.	2d\	.	2f#\	.	2.dd\	2ff#\	.
.	.	.	.	16a/	.	16ee\	.	.	.	.	.	.	.	.	.	.	.	.	.	.	.	.	.	.	.	.
8F#\J	.	8A/	.	16a/	.	16ff#\	.	8F#\	-li-	.	8A\	-li-	.	8f#\	-li-	.	8dd\	-li-	.	.	.	.	.	.	.	.
.	.	.	.	16a/JJ	.	16ee\JJ	.	.	.	.	.	.	.	.	.	.	.	.	.	.	.	.	.	.	.	.
!	!	!	!	!	!	!	!	!	!	!	!LO:LB:g=original	!	!	!	!	!	!	!	!	!	!	!	!	!	!	!
8D\L	.	8A/	.	16f#/LL	.	16dd\LL	.	4D\	-cam	.	4A\	-cam	.	4f#\	-cam	.	4dd\	-cam	.	.	.	.	.	.	.	.
.	.	.	.	16f#/	.	16ee\	.	.	.	.	.	.	.	.	.	.	.	.	.	.	.	.	.	.	.	.
8D\J	.	8A/	.	16f#/	.	16ff#\	.	.	.	.	.	.	.	.	.	.	.	.	.	.	.	.	.	.	.	.
.	.	.	.	16f#/JJ	.	16gg\JJ	.	.	.	.	.	.	.	.	.	.	.	.	.	.	.	.	.	.	.	.
!	!	!	!	!	!	!	!	!	!	!	!	!	!	!LO:LB:g=original	!	!	!	!	!	!	!	!	!	!	!	!
8F#\L	.	8A/	.	16a/LL	.	16aa\LL	.	4F#\	Ec-	.	4d\	Ec-	.	4a\	Ec-	.	4dd\	Ec-	.	4r	.	4r	.	.	4aa\	.
.	.	.	.	16a/	.	16bb\	.	.	.	.	.	.	.	.	.	.	.	.	.	.	.	.	.	.	.	.
8F#\J	.	8A/J	.	16a/	.	16ccc#\	.	.	.	.	.	.	.	.	.	.	.	.	.	.	.	.	.	.	.	.
.	.	.	.	16a/JJ	.	16ddd\JJ	.	.	.	.	.	.	.	.	.	.	.	.	.	.	.	.	.	.	.	.
!	!	!	!	!	!	!	!	!	!	!	!	!	!	!	!	!	!	!	!	!	!	!	!	!LO:LB:g=original	!	!
=56	=56	=56	=56	=56	=56	=56	=56	=56	=56	=56	=56	=56	=56	=56	=56	=56	=56	=56	=56	=56	=56	=56	=56	=56	=56	=56
!	!	!	!	!	!	!	!	!	!	!	!	!	!	!	!	!	!LO:SIC:v:l:s=qui-cle-	!	!	!	!	!	!	!	!	!
8G\L	.	8e\L	.	16b\LL	.	8bb\L	.	8G\	-cle-	.	8d\	-cle-	.	8b\	-cle-	.	8ee\	-cleſ-	.	8r	.	8r	.	2.b\	8bb\L	.
.	.	.	.	16b\	.	.	.	.	.	.	.	.	.	.	.	.	.	.	.	.	.	.	.	.	.	.
8G\	.	8e\	.	16b\	.	8gg\J	.	8G\	-si-	.	8e\	-si-	.	8b\	-ſi-	.	8ee\	-si-	.	8e\L	.	8e\L	.	.	8gg\J	.
.	.	.	.	16b\	.	.	.	.	.	.	.	.	.	.	.	.	.	.	.	.	.	.	.	.	.	.
8G\	.	8e\	.	16b\	.	4.ee\	.	4G\	-am	.	4e\	-am	.	4b\	-am	.	4ee\	-am	.	8e\	.	8e\	.	.	2ee\	.
.	.	.	.	16b\	.	.	.	.	.	.	.	.	.	.	.	.	.	.	.	.	.	.	.	.	.	.
8G\	.	8e\	.	16b\	.	.	.	.	.	.	.	.	.	.	.	.	.	.	.	8e\J	.	8e\J	.	.	.	.
.	.	.	.	16b\	.	.	.	.	.	.	.	.	.	.	.	.	.	.	.	.	.	.	.	.	.	.
8G\	.	8e\	.	16b\	.	.	.	4G\	Con-	.	4e\	con-	.	4b\	Con-	.	4ee\	Con-	.	4e\	.	4e\	.	.	.	.
.	.	.	.	16b\	.	.	.	.	.	.	.	.	.	.	.	.	.	.	.	.	.	.	.	.	.	.
8G\J	.	8e\J	.	16b\	.	8gg\	.	.	.	.	.	.	.	.	.	.	.	.	.	.	.	.	.	.	.	.
.	.	.	.	16b\JJ	.	.	.	.	.	.	.	.	.	.	.	.	.	.	.	.	.	.	.	.	.	.
!	!	!	!	!	!	!	!	!LO:LB:g=original	!	!	!	!	!	!	!	!	!	!	!	!	!	!	!	!	!	!
=57	=57	=57	=57	=57	=57	=57	=57	=57	=57	=57	=57	=57	=57	=57	=57	=57	=57	=57	=57	=57	=57	=57	=57	=57	=57	=57
8G\L	.	8e\L	.	16b\LL	.	8bb\L	.	4.G\	-fi-	.	4.e\	-fi-	.	4.b\	-fi-	.	4.ee\	-fi-	.	8r	.	8r	.	2b\	2.ee\	.
.	.	.	.	16b\	.	.	.	.	.	.	.	.	.	.	.	.	.	.	.	.	.	.	.	.	.	.
8G\	.	8e\	.	16b\	.	8gg\J	.	.	.	.	.	.	.	.	.	.	.	.	.	8e\L	.	8e\L	.	.	.	.
.	.	.	.	16b\	.	.	.	.	.	.	.	.	.	.	.	.	.	.	.	.	.	.	.	.	.	.
8G\	.	8e\	.	16b\	.	4.ee\	.	.	.	.	.	.	.	.	.	.	.	.	.	8e\	.	8e\	.	.	.	.
.	.	.	.	16b\	.	.	.	.	.	.	.	.	.	.	.	.	.	.	.	.	.	.	.	.	.	.
8G\J	.	8e\J	.	16b\	.	.	.	8G\	-te-	.	8e\	-te-	.	8b\	-te-	.	8ee\	-te-	.	8e\J	.	8e\J	.	.	.	.
.	.	.	.	16b\JJ	.	.	.	.	.	.	.	.	.	.	.	.	.	.	.	.	.	.	.	.	.	.
*Xtremolo	*	*Xtremolo	*	*	*	*	*	*	*	*	*	*	*	*	*	*	*	*	*	*	*	*	*	*	*	*
8G#X\L	.	8B/L	.	16e/LL	.	.	.	4G#X\	-or	.	4d\	-or	.	4b\	-or	.	4ee\	-or	.	4e\	.	4e\	.	4dd\	.	.
.	.	.	.	16e/	.	.	.	.	.	.	.	.	.	.	.	.	.	.	.	.	.	.	.	.	.	.
8G#\J	.	8B/J	.	16e/	.	8dd\	.	.	.	.	.	.	.	.	.	.	.	.	.	.	.	.	.	.	.	.
.	.	.	.	16e/JJ	.	.	.	.	.	.	.	.	.	.	.	.	.	.	.	.	.	.	.	.	.	.
=58	=58	=58	=58	=58	=58	=58	=58	=58	=58	=58	=58	=58	=58	=58	=58	=58	=58	=58	=58	=58	=58	=58	=58	=58	=58	=58
*tremolo	*	*	*	*	*	*	*	*	*	*	*	*	*	*	*	*	*	*	*	*	*	*	*	*	*	*
8A\L	.	8c#\L	.	16e/LL	.	16cc#\LL	.	4A\	u-	.	4c#\	u-	.	4a\	U-	.	4ee\	U-	.	4A/	.	4e\	.	2cc#\	4ee\	.
.	.	.	.	16cc#/	.	16aa\	.	.	.	.	.	.	.	.	.	.	.	.	.	.	.	.	.	.	.	.
8A\	.	8c#\	.	16e/	.	16gg#X\	.	.	.	.	.	.	.	.	.	.	.	.	.	.	.	.	.	.	.	.
.	.	.	.	16cc#/	.	16aa\JJ	.	.	.	.	.	.	.	.	.	.	.	.	.	.	.	.	.	.	.	.
8A\	.	8e\	.	16e/	.	16bb\LL	.	4A\	-num	.	4c#\	-num	.	4a\	-num	.	4ee\	-num	.	4r	.	4r	.	.	4aa\	.
.	.	.	.	16cc#/	.	16aa\	.	.	.	.	.	.	.	.	.	.	.	.	.	.	.	.	.	.	.	.
8A\J	.	8e\	.	16e/	.	16gg#\	.	.	.	.	.	.	.	.	.	.	.	.	.	.	.	.	.	.	.	.
.	.	.	.	16cc#/JJ	.	16aa\JJ	.	.	.	.	.	.	.	.	.	.	.	.	.	.	.	.	.	.	.	.
*Xtremolo	*	*	*	*	*	*	*	*	*	*	*	*	*	*	*	*	*	*	*	*	*	*	*	*	*	*
8c#\L	.	8e\	.	16a/LL	.	16aa\LL	.	4c#\	Bap-	.	4c#\	Bap-	.	4a\	Bap-	.	4ee\	Bap-	.	4A/	.	4e\	.	4ee\	4ggn\	.
.	.	.	.	16a/	.	16ggn\	.	.	.	.	.	.	.	.	.	.	.	.	.	.	.	.	.	.	.	.
8c#\J	.	8e\J	.	16a/	.	16ff#\	.	.	.	.	.	.	.	.	.	.	.	.	.	.	.	.	.	.	.	.
.	.	.	.	16a/JJ	.	16gg\JJ	.	.	.	.	.	.	.	.	.	.	.	.	.	.	.	.	.	.	.	.
!	!	!	!	!	!	!	!	!	!	!	!	!	!	!	!	!	!	!	!	!	!	!	!	!	!LO:LB:g=original	!
=59	=59	=59	=59	=59	=59	=59	=59	=59	=59	=59	=59	=59	=59	=59	=59	=59	=59	=59	=59	=59	=59	=59	=59	=59	=59	=59
*	*	*	*	*	*	*tremolo	*	*	*	*	*	*	*	*	*	*	*	*	*	*	*	*	*	*	*	*
8d\L	.	8d\L	.	16a/LL	.	16ff#\LL	.	4d\	-tiſ-	.	4d\	-tiſ-	.	4a\	-tys-	.	4ff#\	-tyſ-	.	4d\	.	4f#\	.	4dd\	4ff#\	.
.	.	.	.	16a/	.	16ff#\	.	.	.	.	.	.	.	.	.	.	.	.	.	.	.	.	.	.	.	.
8d\	.	8d\	.	16a/	.	16ff#\	.	.	.	.	.	.	.	.	.	.	.	.	.	.	.	.	.	.	.	.
.	.	.	.	16a/	.	16ff#\JJ	.	.	.	.	.	.	.	.	.	.	.	.	.	.	.	.	.	.	.	.
8G\	.	8c#\	.	16a/	.	16ee\LL	.	4G\	-ma	.	4c#\	-ma	.	4a\	-ma	.	4ee\	-ma	.	4A/	.	4e\	.	4cc#\	4ee\	.
.	.	.	.	16a/	.	16ee\	.	.	.	.	.	.	.	.	.	.	.	.	.	.	.	.	.	.	.	.
8G\	.	8c#\	.	16a/	.	16ee\	.	.	.	.	.	.	.	.	.	.	.	.	.	.	.	.	.	.	.	.
.	.	.	.	16a/	.	16ee\JJ	.	.	.	.	.	.	.	.	.	.	.	.	.	.	.	.	.	.	.	.
8F#\	.	8d\	.	16a/	.	16dd\LL	.	8F#\	in	.	8d\	in	.	8a\	in	.	8dd\	in	.	4F#/	.	4d\	.	4dd\	4dd\	.
.	.	.	.	16a/	.	16dd\	.	.	.	.	.	.	.	.	.	.	.	.	.	.	.	.	.	.	.	.
8F#\J	.	8d\J	.	16a/	.	16dd\	.	8F#\	re-	.	8d\	re-	.	8a\	re-	.	8dd\	re-	.	.	.	.	.	.	.	.
.	.	.	.	16a/JJ	.	16dd\JJ	.	.	.	.	.	.	.	.	.	.	.	.	.	.	.	.	.	.	.	.
!	!	!	!	!	!	!	!	!	!	!	!	!	!	!	!	!	!	!LO:LB:g=original	!	!	!	!	!	!	!	!
=60	=60	=60	=60	=60	=60	=60	=60	=60	=60	=60	=60	=60	=60	=60	=60	=60	=60	=60	=60	=60	=60	=60	=60	=60	=60	=60
*tremolo	*	*	*	*	*	*	*	*	*	*	*	*	*	*	*	*	*	*	*	*	*	*	*	*	*	*
!	!	!	!	!	!	!LO:TX:t=P:problem:mixed beam	!	!	!	!	!	!	!	!	!	!	!	!	!	!	!	!	!	!	!	!
8G#X\L	.	2.g#X\	.	16e/LL	.	16e/LL	.	8G#X\	-miſ-	.	8d\	-miſ-	.	8b\	-miſ-	.	8dd\	-miſ-	.	4r	.	4e\	.	2.dd\	2.ee\	.
.	.	.	.	16b/	.	16dd\	.	.	.	.	.	.	.	.	.	.	.	.	.	.	.	.	.	.	.	.
8G#X\	.	.	.	16e/	.	16e/	.	8G#\	-si-	.	8d\	-si-	.	8b\	-si-	.	8dd\	-si-	.	.	.	.	.	.	.	.
.	.	.	.	16b/	.	16dd\JJ	.	.	.	.	.	.	.	.	.	.	.	.	.	.	.	.	.	.	.	.
!	!	!	!	!	!	!LO:TX:t=P:problem:mixed beam	!	!	!	!	!	!	!	!	!	!	!	!	!	!	!	!	!	!	!	!
8G#X\	.	.	.	16e/	.	16e/LL	.	2G#\	-o-	.	2e\	-o-	.	2b\	-o-	.	2dd\	-o-	.	4e\	.	4e\	.	.	.	.
.	.	.	.	16b/	.	16dd\	.	.	.	.	.	.	.	.	.	.	.	.	.	.	.	.	.	.	.	.
8G#X\	.	.	.	16e/	.	16e/	.	.	.	.	.	.	.	.	.	.	.	.	.	.	.	.	.	.	.	.
.	.	.	.	16b/	.	16dd\	.	.	.	.	.	.	.	.	.	.	.	.	.	.	.	.	.	.	.	.
8G#X\	.	.	.	16e/	.	16e/	.	.	.	.	.	.	.	.	.	.	.	.	.	4e\	.	4e\	.	.	.	.
.	.	.	.	16b/	.	16dd\	.	.	.	.	.	.	.	.	.	.	.	.	.	.	.	.	.	.	.	.
8G#X\J	.	.	.	16e/	.	16e/	.	.	.	.	.	.	.	.	.	.	.	.	.	.	.	.	.	.	.	.
.	.	.	.	16b/JJ	.	16dd\JJ	.	.	.	.	.	.	.	.	.	.	.	.	.	.	.	.	.	.	.	.
*Xtremolo	*	*	*	*Xtremolo	*	*Xtremolo	*	*	*	*	*	*	*	*	*	*	*	*	*	*	*	*	*	*	*	*
!	!	!	!	!LO:LB:g=original	!	!LO:LB:g=original	!	!	!	!	!	!	!	!	!	!	!	!	!	!	!	!	!	!	!	!
=61	=61	=61	=61	=61	=61	=61	=61	=61	=61	=61	=61	=61	=61	=61	=61	=61	=61	=61	=61	=61	=61	=61	=61	=61	=61	=61
!	!	!	!	!	!	!	!	!	!	!LO:DY:a:t=p&colon;	!	!	!	!	!	!	!	!	!	!	!	!	!	!	!	!
4A\	.	4a\	.	4e/	.	4cc#\	.	4A\	-nem	p	4e\	-nem	.	4a\	-nem	.	4cc#\	-nem	.	4A/	.	4e\	.	4cc#\	4ee\	.
!	!	!	!	!	!	!	!	!	!	!	!	!	!LO:DY:a:t=p&colon;	!LO:SIC:v:s=4a	!	!LO:DY:a:t=p&colon;	!	!	!LO:DY:a:t=p&colon;	!	!	!	!	!	!	!
!	!	!	!	!	!	!	!LO:DY:b:t=pia	!	!	!	!	!	!	!	!	!	!	!	!	!	!	!	!	!	!	!
!	!	!	!	!	!LO:DY:b	!	!	!	!	!	!	!	!	!	!	!	!	!	!	!	!	!	!	!	!	!
4r	.	4A/	.	8r	p	8r	p	4AA/	pec-	.	4A\	pec-	p	4b\	pec-	p	4a\	pec-	p	4A/	.	4e\	.	4r	4r	.
.	.	.	.	8c#/L	.	8ee\L	.	.	.	.	.	.	.	.	.	.	.	.	.	.	.	.	.	.	.	.
!	!LO:DY:a:t=p.	!	!	!	!	!	!	!	!	!	!	!	!	!	!	!	!	!	!	!	!	!	!	!	!	!
4r	p	4r	.	8d/	.	8ff#\	.	4AA/	-ca-	.	4A\	-ca-	.	4a\	-ca-	.	4a\	-ca-	.	4r	.	4r	.	4r	4r	.
.	.	.	.	8e/J	.	8gg\J	.	.	.	.	.	.	.	.	.	.	.	.	.	.	.	.	.	.	.	.
!	!	!	!	!	!	!	!	!	!	!	!	!	!	!LO:LB:g=original	!	!	!	!	!	!	!	!LO:LB:g=original	!	!	!	!
=62	=62	=62	=62	=62	=62	=62	=62	=62	=62	=62	=62	=62	=62	=62	=62	=62	=62	=62	=62	=62	=62	=62	=62	=62	=62	=62
!	!	!	!LO:DY:a:t=p.	!	!	!	!	!	!	!	!	!	!	!	!	!	!	!	!	!LO:TX:a:t=4.	!	!LO:TX:a:t=4	!	!LO:TX:a:t=4	!LO:TX:a:t=4.	!
4AA/	.	8c#\L	p	8e/L	.	(8gg\L	.	2AA/	-to-	.	2A\	-to-	.	2a\	-to-	.	2a\	-to-	.	2.r	.	2.r	.	2.r	2.r	.
.	.	8d\J	.	8d/J	.	8ff#\J)	.	.	.	.	.	.	.	.	.	.	.	.	.	.	.	.	.	.	.	.
4AA/	.	4d\	.	8r	.	8r	.	.	.	.	.	.	.	.	.	.	.	.	.	.	.	.	.	.	.	.
.	.	.	.	8d/L	.	8ff#|\L	.	.	.	.	.	.	.	.	.	.	.	.	.	.	.	.	.	.	.	.
4r	.	4r	.	(8d/	.	(8ff#\	.	4AA/	-rum	.	4A\	-rum	.	4a\	-rum	.	4a\	-rum	.	.	.	.	.	.	.	.
.	.	.	.	8B/J)	.	8gg#X\J)	.	.	.	.	.	.	.	.	.	.	.	.	.	.	.	.	.	.	.	.
!	!	!LO:LB:g=original	!	!	!	!	!	!	!	!	!	!	!	!	!	!	!	!	!	!	!	!	!	!	!	!
=63	=63	=63	=63	=63	=63	=63	=63	=63	=63	=63	=63	=63	=63	=63	=63	=63	=63	=63	=63	=63	=63	=63	=63	=63	=63	=63
*	*	*	*	*	*	*	*	*	*	*	*	*	*	*	*	*	*	*ij	*	*	*	*	*	*	*	*
!	!	!	!	!	!	!LO:SIC:v:s=(8gg#\L	!	!	!	!	!	!	!	!	!	!	!	!	!	!	!	!	!	!	!	!
4AA/	.	4e\	.	8B/L	.	(8gg\L	.	2AA/	pec-	.	2A\	pec-	.	2a\	pec-	.	2a\	pec-	.	2.r	.	2.r	.	2.r	2.r	.
.	.	.	.	8c#/J	.	8aa\J)	.	.	.	.	.	.	.	.	.	.	.	.	.	.	.	.	.	.	.	.
4AA/	.	4A/	.	8r	.	8r	.	.	.	.	.	.	.	.	.	.	.	.	.	.	.	.	.	.	.	.
.	.	.	.	8c#'/L	.	8ee|\L	.	.	.	.	.	.	.	.	.	.	.	.	.	.	.	.	.	.	.	.
4r	.	4r	.	(8d/	.	(8ff#\	.	4AA/	-ca-	.	4A\	-ca-	.	4a\	-ca-	.	4a\	-ca-	.	.	.	.	.	.	.	.
.	.	.	.	8e/J)	.	8ggn\J)	.	.	.	.	.	.	.	.	.	.	.	.	.	.	.	.	.	.	.	.
!	!	!	!	!	!	!	!	!	!	!	!LO:LB:g=original	!	!	!	!	!	!	!	!	!	!	!	!	!	!	!
=64	=64	=64	=64	=64	=64	=64	=64	=64	=64	=64	=64	=64	=64	=64	=64	=64	=64	=64	=64	=64	=64	=64	=64	=64	=64	=64
4AA/	.	8c#\L	.	8e/L	.	(8gg\L	.	2.AA/	-to-	.	2.A\	-to-	.	2.a\	-to-	.	2.a\	-to-	.	2.r	.	2.r	.	2.r	2.r	.
.	.	8d\J	.	8d/J	.	8ff#\J)	.	.	.	.	.	.	.	.	.	.	.	.	.	.	.	.	.	.	.	.
4AA/	.	4d\	.	8r	.	8r	.	.	.	.	.	.	.	.	.	.	.	.	.	.	.	.	.	.	.	.
.	.	.	.	8d/L	.	8ff#|\L	.	.	.	.	.	.	.	.	.	.	.	.	.	.	.	.	.	.	.	.
4r	.	4G#X/	.	8c#/	.	(8ee\	.	.	.	.	.	.	.	.	.	.	.	.	.	.	.	.	.	.	.	.
.	.	.	.	8B/J	.	8dd\J)	.	.	.	.	.	.	.	.	.	.	.	.	.	.	.	.	.	.	.	.
!	!	!	!	!	!	!	!	!LO:LB:g=original	!	!	!	!	!	!	!	!	!	!	!	!	!	!	!	!	!	!
=65	=65	=65	=65	=65	=65	=65	=65	=65	=65	=65	=65	=65	=65	=65	=65	=65	=65	=65	=65	=65	=65	=65	=65	=65	=65	=65
!	!LO:DY:a:t=forte	!	!	!	!	!	!	!	!	!	!	!	!	!	!	!	!	!	!	!	!	!	!	!	!	!
4AA|/	f	4A/	.	4B/	.	(4dd\	.	4AA/	-rum.	.	4A\	-rum.	.	4a\	-rum	.	4a\	-rum	.	2.r	.	2.r	.	2.r	2.r	.
*	*	*	*	*	*	*	*	*	*	*	*	*	*	*	*	*	*	*Xij	*	*	*	*	*	*	*	*
!	!	!	!LO:DY:a	!	!	!	!	!	!	!	!	!	!	!	!	!	!	!	!	!	!	!	!	!	!	!
8A|\L	.	8a\L	f	8A/	.	8cc#\)	.	4r	.	.	4r	.	.	4r	.	.	4r	.	.	.	.	.	.	.	.	.
8G|\	.	8gn\	.	8r	.	8r	.	.	.	.	.	.	.	.	.	.	.	.	.	.	.	.	.	.	.	.
8F#|\	.	8f#\	.	4r	.	4r	.	4r	.	.	4r	.	.	4r	.	.	4r	.	.	.	.	.	.	.	.	.
8E|\J	.	8e\J	.	.	.	.	.	.	.	.	.	.	.	.	.	.	.	.	.	.	.	.	.	.	.	.
!LO:LB:g=original	!	!	!	!	!	!	!	!	!	!	!	!	!	!	!	!	!	!	!	!LO:PB:g=original	!	!	!	!	!	!
=66	=66	=66	=66	=66	=66	=66	=66	=66	=66	=66	=66	=66	=66	=66	=66	=66	=66	=66	=66	=66	=66	=66	=66	=66	=66	=66
!LO:TX:a:i:t=Tutti	!	!	!	!	!	!	!	!	!	!LO:DY:a:t=for	!	!	!LO:DY:a:t=for	!	!	!LO:DY:a:t=for	!	!	!LO:DY:a:t=for	!	!	!	!	!	!	!
!	!	!	!	!	!	!	!LO:DY:b:t=for	!	!	!	!	!	!	!	!	!	!	!	!	!	!	!	!	!	!	!
!	!	!	!	!	!LO:DY:b:t=for	!	!	!	!	!	!	!	!	!	!	!	!	!	!	!	!	!	!	!	!	!
4D\	.	4d\	.	4f# 4A/	f	4dd 4f#\	f	(4D\	Et	f	2A\	Et	f	2f#\	Et	f	2dd\	Et	f	4F#/	.	4d\	.	4dd\	4ff#\	.
4F#\	.	4f#\	.	4f# 4A/	.	4dd 4f#\	.	4F#\)	.	.	.	.	.	.	.	.	.	.	.	4F#/	.	4d\	.	4dd\	4ff#\	.
4A\	.	4a\	.	4f# 4A/	.	4dd 4f#\	.	4A\	ex-	.	4A\	ex-	.	4f#\	ex-	.	4dd\	ex-	.	4F#/	.	4d\	.	4dd\	4ff#\	.
!	!	!	!	!LO:LB:g=original	!	!	!	!	!	!	!	!	!	!	!	!	!	!	!	!	!	!	!	!	!	!
=67	=67	=67	=67	=67	=67	=67	=67	=67	=67	=67	=67	=67	=67	=67	=67	=67	=67	=67	=67	=67	=67	=67	=67	=67	=67	=67
4d\	.	4dd\	.	4f#/	.	16dd\LL	.	4d\	-pe-	.	4A\	-pe-	.	4f#\	-pe-	.	4dd\	-pe-	.	4F#/	.	4d\	.	4dd\	4ff#\	.
.	.	.	.	.	.	16ee\	.	.	.	.	.	.	.	.	.	.	.	.	.	.	.	.	.	.	.	.
.	.	.	.	.	.	16ff#\	.	.	.	.	.	.	.	.	.	.	.	.	.	.	.	.	.	.	.	.
.	.	.	.	.	.	16ee\JJ	.	.	.	.	.	.	.	.	.	.	.	.	.	.	.	.	.	.	.	.
*	*	*tremolo	*	*	*	*	*	*	*	*	*	*	*	*	*	*	*	*	*	*	*	*	*	*	*	*
!	!	!	!LO:DY:a:t=p.	!	!	!	!	!	!	!	!	!	!	!	!	!	!	!	!	!	!	!	!	!	!	!
!	!	!	!	!	!	!	!LO:DY:b:t=pia	!	!	!	!	!	!	!	!	!	!	!	!	!	!	!	!	!	!	!
!	!	!	!	!	!LO:DY:b	!	!	!	!	!	!	!	!	!	!	!	!	!	!	!	!	!	!	!	!	!
4D/	.	8d\L	p	8f#/L	p	8dd\L	p	4D/	-cto	.	4A\	-cto	.	4f#\	-cto	.	4dd\	-cto	.	8D/	.	8d\	.	8dd\	8ff#\	.
!	!	!	!	!	!	!	!	!	!	!	!	!	!	!	!	!	!	!	!	!	!	!	!	!LO:TX:t=P:problem:niepełna miara taktu	!	!
.	.	8d\	.	8b/	.	8dd\	.	.	.	.	.	.	.	.	.	.	.	.	.	8r	.	8r	.	8ryy	8r	.
4r	.	8d\	.	8a/	.	8cc#\	.	4r	.	.	4r	.	.	4r	.	.	4r	.	.	4r	.	4r	.	4r	4r	.
.	.	8d\J	.	8g/J	.	8b\J	.	.	.	.	.	.	.	.	.	.	.	.	.	.	.	.	.	.	.	.
!	!	!	!	!	!	!LO:LB:g=original	!	!	!	!	!	!	!	!	!	!	!	!	!	!	!	!	!	!LO:LB:g=original	!	!
=68	=68	=68	=68	=68	=68	=68	=68	=68	=68	=68	=68	=68	=68	=68	=68	=68	=68	=68	=68	=68	=68	=68	=68	=68	=68	=68
!	!	!	!	!	!	!	!	!	!	!	!	!	!	!LO:TX:t=P:problem:"2" dopisane ołówkiem	!	!	!	!	!	!	!	!	!	!	!	!
!LO:TX:a:t=2	!	!	!	!	!	!	!	!	!	!	!	!	!	!LO:TX:a:t=2	!	!	!LO:TX:a:t=2	!	!	!LO:TX:a:t=2.	!	!LO:TX:a:t=2	!	!	!LO:TX:a:t=3	!
2.r	.	8d\L	.	8g/L	.	(8b\L	.	2.r	.	.	2.r	.	.	2.r	.	.	2.r	.	.	2.r	.	2.r	.	2.r	2.r	.
.	.	8d\	.	8f#/J	.	8a\J)	.	.	.	.	.	.	.	.	.	.	.	.	.	.	.	.	.	.	.	.
.	.	8d\	.	4.f#/	.	4.a\	.	.	.	.	.	.	.	.	.	.	.	.	.	.	.	.	.	.	.	.
.	.	8d\	.	.	.	.	.	.	.	.	.	.	.	.	.	.	.	.	.	.	.	.	.	.	.	.
.	.	8d\	.	.	.	.	.	.	.	.	.	.	.	.	.	.	.	.	.	.	.	.	.	.	.	.
.	.	8d\J	.	8f#/	.	8a\	.	.	.	.	.	.	.	.	.	.	.	.	.	.	.	.	.	.	.	.
=69	=69	=69	=69	=69	=69	=69	=69	=69	=69	=69	=69	=69	=69	=69	=69	=69	=69	=69	=69	=69	=69	=69	=69	=69	=69	=69
2.r	.	8d\L	.	8f#/L	.	(8a\L	.	2.r	.	.	2.r	.	.	2.r	.	.	2.r	.	.	2.r	.	2.r	.	2.r	2.r	.
.	.	8d\	.	8g/J	.	8b\J)	.	.	.	.	.	.	.	.	.	.	.	.	.	.	.	.	.	.	.	.
.	.	8d\	.	4.g/	.	4.b\	.	.	.	.	.	.	.	.	.	.	.	.	.	.	.	.	.	.	.	.
.	.	8d\	.	.	.	.	.	.	.	.	.	.	.	.	.	.	.	.	.	.	.	.	.	.	.	.
.	.	8d\	.	.	.	.	.	.	.	.	.	.	.	.	.	.	.	.	.	.	.	.	.	.	.	.
.	.	8d\J	.	8e/	.	8cc#\	.	.	.	.	.	.	.	.	.	.	.	.	.	.	.	.	.	.	.	.
!	!	!	!	!	!	!	!	!	!	!	!	!	!	!	!	!	!LO:LB:g=original	!	!	!	!	!	!	!	!	!
=70	=70	=70	=70	=70	=70	=70	=70	=70	=70	=70	=70	=70	=70	=70	=70	=70	=70	=70	=70	=70	=70	=70	=70	=70	=70	=70
!	!	!	!	!	!	!	!LO:DY:a:t=for	!	!	!	!	!	!	!	!	!	!	!	!	!	!	!	!	!	!	!
!	!	!	!	!	!LO:DY:b:t=for	!	!	!	!	!	!	!	!	!	!	!	!	!	!	!	!	!	!	!	!	!
4r	.	8d\L	.	8e/L	f	(8ee\L	f	4r	.	.	4r	.	.	4r	.	.	4r	.	.	4r	.	4r	.	2.r	2.r	.
.	.	8d\	.	8f#/J	.	8dd\)	.	.	.	.	.	.	.	.	.	.	.	.	.	.	.	.	.	.	.	.
8r	.	8d\	.	8f#'/L	.	8dd|\	.	8r	.	.	8r	.	.	8r	.	.	8r	.	.	8r	.	8r	.	.	.	.
8D|\L	.	8d\J	.	8b'/	.	8ddd|\	.	4D\	Et	.	4d\	et	.	8b\L	Et	.	8dd\L	et	.	8D/L	.	8d\L	.	.	.	.
*	*	*Xtremolo	*	*	*	*	*	*	*	*	*	*	*	*	*	*	*	*	*	*	*	*	*	*	*	*
8D|\	.	8d\L	.	8a'/	.	8ccc#|\	.	.	.	.	.	.	.	8a\J	.	.	8cc#\J	.	.	8D/	.	8d\	.	.	.	.
!	!	!	!LO:DY:a:t=for	!	!	!	!	!	!	!	!	!	!	!	!	!	!	!	!	!	!	!	!	!	!	!
8D|\J	.	8d\J	f	8g/J	.	8bb|\J	.	8D\	ex-	.	8d\	ex-	.	8g\	ex-	.	8b\	ex-	.	8D/J	.	8d\J	.	.	.	.
=71	=71	=71	=71	=71	=71	=71	=71	=71	=71	=71	=71	=71	=71	=71	=71	=71	=71	=71	=71	=71	=71	=71	=71	=71	=71	=71
*tremolo	*	*tremolo	*	*	*	*	*	*	*	*	*	*	*	*	*	*	*	*	*	*	*	*	*	*	*	*
8D\L	.	8d\L	.	8g/L	.	8bb\L	.	2D\	-spe-	.	2d\	-spe-	.	8g\	-spe-	.	8b\L	-pe-	.	4D/	.	4d\	.	8gg\L	8bb\L	.
8D\	.	8d\	.	8f#/J	.	8aa\J	.	.	.	.	.	.	.	8f#\	-cto	.	8a\J	.	.	.	.	.	.	8ff#\J	8aa\J	.
*	*	*	*	*tremolo	*	*	*	*	*	*	*	*	*	*	*	*	*	*	*	*tremolo	*	*tremolo	*	*	*	*
8D\	.	8d\	.	16a\LL	.	4.aa\	.	.	.	.	.	.	.	4f#\	re-	.	4a\	-cto	.	8D/L	.	8d\L	.	2ff#\	2aa\	.
.	.	.	.	16ff#\	.	.	.	.	.	.	.	.	.	.	.	.	.	.	.	.	.	.	.	.	.	.
8D\	.	8d\	.	16a\	.	.	.	.	.	.	.	.	.	.	.	.	.	.	.	8D/	.	8d\	.	.	.	.
.	.	.	.	16ff#\	.	.	.	.	.	.	.	.	.	.	.	.	.	.	.	.	.	.	.	.	.	.
8D\	.	8d\	.	16a\	.	.	.	4D\	-cto	.	4d\	-cto	.	4f#\	-sur-	.	8a\	re-	.	8D/	.	8d\	.	.	.	.
.	.	.	.	16ff#\	.	.	.	.	.	.	.	.	.	.	.	.	.	.	.	.	.	.	.	.	.	.
8D\J	.	8d\J	.	16a\	.	8aa\	.	.	.	.	.	.	.	.	.	.	8a\	-ſur-	.	8D/J	.	8d\J	.	.	.	.
.	.	.	.	16ff#\JJ	.	.	.	.	.	.	.	.	.	.	.	.	.	.	.	.	.	.	.	.	.	.
*	*	*Xtremolo	*	*	*	*	*	*	*	*	*	*	*	*	*	*	*	*	*	*	*	*	*	*	*	*
!	!	!	!	!	!	!	!	!	!	!	!	!	!	!LO:LB:g=original	!	!	!	!	!	!	!	!	!	!	!	!
=72	=72	=72	=72	=72	=72	=72	=72	=72	=72	=72	=72	=72	=72	=72	=72	=72	=72	=72	=72	=72	=72	=72	=72	=72	=72	=72
8D\L	.	2d\	.	16gg\LL	.	8aa#X\L	.	8D\	re-	.	8d\	re-	.	2g\	-re-	.	(8a\	-re-	.	8D/L	.	8d\L	.	2gg\	2bb\	.
.	.	.	.	16gg\	.	.	.	.	.	.	.	.	.	.	.	.	.	.	.	.	.	.	.	.	.	.
8D\	.	.	.	16gg\	.	8bb\J	.	8D\	-sur-	.	8d\	-sur-	.	.	.	.	8b\)	.	.	8D/	.	8d\	.	.	.	.
.	.	.	.	16gg\	.	.	.	.	.	.	.	.	.	.	.	.	.	.	.	.	.	.	.	.	.	.
8D\	.	.	.	16gg\	.	4.bb\	.	4D\	-re-	.	4d\	-re-	.	.	.	.	4.b\	.	.	8D/	.	8d\	.	.	.	.
.	.	.	.	16gg\	.	.	.	.	.	.	.	.	.	.	.	.	.	.	.	.	.	.	.	.	.	.
8D\	.	.	.	16gg\	.	.	.	.	.	.	.	.	.	.	.	.	.	.	.	8D/J	.	8d\J	.	.	.	.
.	.	.	.	16gg\JJ	.	.	.	.	.	.	.	.	.	.	.	.	.	.	.	.	.	.	.	.	.	.
*	*	*	*	*	*	*	*	*	*	*	*	*	*	*	*	*	*	*	*	*Xtremolo	*	*	*	*	*	*
8D\	.	8A/L	.	16ee\LL	.	.	.	4D\	-cti-	.	4A\	-cti-	.	4e\	-cti-	.	.	.	.	4A/	.	8e\L	.	4ee\	4gg\	.
.	.	.	.	16ee\	.	.	.	.	.	.	.	.	.	.	.	.	.	.	.	.	.	.	.	.	.	.
8D\J	.	8A/J	.	16ee\	.	8ccc#\	.	.	.	.	.	.	.	.	.	.	8cc#\	-cti-	.	.	.	8e\J	.	.	.	.
.	.	.	.	16ee\JJ	.	.	.	.	.	.	.	.	.	.	.	.	.	.	.	.	.	.	.	.	.	.
*	*	*	*	*Xtremolo	*	*	*	*	*	*	*	*	*	*	*	*	*	*	*	*	*	*Xtremolo	*	*	*	*
!	!	!LO:LB:g=original	!	!	!	!	!	!	!	!	!	!	!	!	!	!	!	!	!	!	!	!	!	!	!	!
=73	=73	=73	=73	=73	=73	=73	=73	=73	=73	=73	=73	=73	=73	=73	=73	=73	=73	=73	=73	=73	=73	=73	=73	=73	=73	=73
8D\L	.	8A/L	.	8ee\L	.	8ccc#\L	.	4D\	-o-	.	4A\	-o-	.	4f#\	-o-	.	4dd\	-o-	.	8A\L	.	8e\L	.	8ee\L	8gg\L	.
8D\	.	8A/	.	8ff#\J	.	8ddd\J	.	.	.	.	.	.	.	.	.	.	.	.	.	8d\J	.	8f#\	.	8dd\J	8ff#\J	.
!	!	!	!	!LO:LB:g=original	!	!	!	!	!	!	!	!	!	!	!	!	!	!	!	!	!	!	!	!	!	!
!	!	!	!	!LO:TX:t=P:problem:mixed beam	!	!	!	!	!	!	!	!	!	!	!	!	!	!	!	!	!	!	!	!	!	!
8D\	.	8d/	.	8ff#\L	.	8ddd\L	.	4D\	-nem	.	4A\	-nem	.	4f#\	-nem	.	4dd\	-nem	.	4d\	.	8f#\	.	4dd\	4ff#\	.
8D\	.	8d/J	.	16f#/L	.	8dd\	.	.	.	.	.	.	.	.	.	.	.	.	.	.	.	8f#\J	.	.	.	.
.	.	.	.	16a/JJ	.	.	.	.	.	.	.	.	.	.	.	.	.	.	.	.	.	.	.	.	.	.
8D\	.	8d\L	.	16f#/LL	.	8ff#\	.	4r	.	.	4r	.	.	4r	.	.	4r	.	.	4r	.	4r	.	4r	4r	.
.	.	.	.	16a/	.	.	.	.	.	.	.	.	.	.	.	.	.	.	.	.	.	.	.	.	.	.
8D\J	.	8f#\J	.	16f#/	.	8aa\J	.	.	.	.	.	.	.	.	.	.	.	.	.	.	.	.	.	.	.	.
.	.	.	.	16a/JJ	.	.	.	.	.	.	.	.	.	.	.	.	.	.	.	.	.	.	.	.	.	.
*Xtremolo	*	*	*	*	*	*	*	*	*	*	*	*	*	*	*	*	*	*	*	*	*	*	*	*	*	*
!	!	!	!	!	!	!	!	!LO:LB:g=original	!	!	!	!	!	!	!	!	!	!	!	!	!	!	!	!	!	!
=74	=74	=74	=74	=74	=74	=74	=74	=74	=74	=74	=74	=74	=74	=74	=74	=74	=74	=74	=74	=74	=74	=74	=74	=74	=74	=74
*	*	*	*	*tremolo	*	*	*	*	*	*	*	*	*	*	*	*	*	*	*	*	*	*	*	*	*	*
8E\L	.	8c#\L	.	16a 16e/LL	.	16aa\LL	.	(4E\	mor-	.	(4c#\	mor-	.	2a\	mor-	.	2ee\	mor-	.	2A/	.	2e\	.	2ee\	2gg\	.
.	.	.	.	16a 16e/	.	16gg\	.	.	.	.	.	.	.	.	.	.	.	.	.	.	.	.	.	.	.	.
8E\	.	8c#\	.	16a 16e/	.	16ff#\	.	.	.	.	.	.	.	.	.	.	.	.	.	.	.	.	.	.	.	.
.	.	.	.	16a 16e/	.	16gg\JJ	.	.	.	.	.	.	.	.	.	.	.	.	.	.	.	.	.	.	.	.
8C#\	.	8e\	.	16a 16e/	.	16a\LL	.	4C#\)	.	.	4e\)	.	.	.	.	.	.	.	.	.	.	.	.	.	.	.
.	.	.	.	16a 16e/	.	16cc#\	.	.	.	.	.	.	.	.	.	.	.	.	.	.	.	.	.	.	.	.
8C#\	.	8e\	.	16a 16e/	.	16ee\	.	.	.	.	.	.	.	.	.	.	.	.	.	.	.	.	.	.	.	.
.	.	.	.	16a 16e/JJ	.	16gg\JJ	.	.	.	.	.	.	.	.	.	.	.	.	.	.	.	.	.	.	.	.
!	!	!	!	!	!	!LO:LB:g=original	!	!	!	!	!	!	!	!	!	!	!	!	!	!	!	!	!	!	!	!
8D\	.	8d\	.	16a 16f#/LL	.	16ff#\LL	.	4D\	-tu-	.	4d\	-tu-	.	4a\	-tu-	.	4ff#\	-tu-	.	4d\	.	4f#\	.	4dd\	4ff#\	.
.	.	.	.	16a 16f#/	.	16aa\	.	.	.	.	.	.	.	.	.	.	.	.	.	.	.	.	.	.	.	.
8D\J	.	8d\J	.	16a 16f#/	.	16gg#X\	.	.	.	.	.	.	.	.	.	.	.	.	.	.	.	.	.	.	.	.
.	.	.	.	16a 16f#/JJ	.	16aa\JJ	.	.	.	.	.	.	.	.	.	.	.	.	.	.	.	.	.	.	.	.
!	!	!	!	!	!	!	!	!	!	!	!LO:LB:g=original	!	!	!	!	!	!	!	!	!	!	!	!	!	!LO:LB:g=original	!
=75	=75	=75	=75	=75	=75	=75	=75	=75	=75	=75	=75	=75	=75	=75	=75	=75	=75	=75	=75	=75	=75	=75	=75	=75	=75	=75
8E\L	.	8c#\L	.	16a 16e/LL	.	16aa\LL	.	(4E\	-o-	.	(4c#\	-o-	.	4a\	-o-	.	4ee\	-o-	.	2A/	.	2e\	.	2cc#\	2gg\	.
.	.	.	.	16a 16e/	.	16ggn\	.	.	.	.	.	.	.	.	.	.	.	.	.	.	.	.	.	.	.	.
8E\	.	8c#\	.	16a 16e/	.	16ff#\	.	.	.	.	.	.	.	.	.	.	.	.	.	.	.	.	.	.	.	.
.	.	.	.	16a 16e/	.	16gg\JJ	.	.	.	.	.	.	.	.	.	.	.	.	.	.	.	.	.	.	.	.
8C#\	.	8e\	.	16a 16e/	.	16a\LL	.	4C#\)	.	.	4e\)	.	.	4a\	-rum	.	4ee\	-rum	.	.	.	.	.	.	.	.
.	.	.	.	16a 16e/	.	16cc#\	.	.	.	.	.	.	.	.	.	.	.	.	.	.	.	.	.	.	.	.
8C#\	.	8e\	.	16a 16e/	.	16ee\	.	.	.	.	.	.	.	.	.	.	.	.	.	.	.	.	.	.	.	.
.	.	.	.	16a 16e/JJ	.	16gg\JJ	.	.	.	.	.	.	.	.	.	.	.	.	.	.	.	.	.	.	.	.
8D\	.	8d\	.	16a 16f#/LL	.	16gg\LL	.	4D\	-rum	.	4d\	-rum	.	4a\	Et	.	4ff#\	et	.	4d\	.	4f#\	.	4dd\	4ff#\	.
.	.	.	.	16a 16f#/	.	16ff#\	.	.	.	.	.	.	.	.	.	.	.	.	.	.	.	.	.	.	.	.
8D\J	.	8d\J	.	16a 16f#/	.	16ee\	.	.	.	.	.	.	.	.	.	.	.	.	.	.	.	.	.	.	.	.
.	.	.	.	16a 16f#/JJ	.	16ff#\JJ	.	.	.	.	.	.	.	.	.	.	.	.	.	.	.	.	.	.	.	.
=76	=76	=76	=76	=76	=76	=76	=76	=76	=76	=76	=76	=76	=76	=76	=76	=76	=76	=76	=76	=76	=76	=76	=76	=76	=76	=76
*tremolo	*	*	*	*	*	*	*	*	*	*	*	*	*	*	*	*	*	*	*	*	*	*	*	*	*	*
8G\L	.	2g\	.	16b/LL	.	16ff#\LL	.	2G\	Et	.	4d\	et	.	2.b\	vi-	.	(2ee\	vi-	.	4r	.	4r	.	2b\	2ee\	.
.	.	.	.	16b/	.	16ee\	.	.	.	.	.	.	.	.	.	.	.	.	.	.	.	.	.	.	.	.
8G\	.	.	.	16b/	.	16dd#X\	.	.	.	.	.	.	.	.	.	.	.	.	.	.	.	.	.	.	.	.
.	.	.	.	16b/	.	16ee\JJ	.	.	.	.	.	.	.	.	.	.	.	.	.	.	.	.	.	.	.	.
8G\	.	.	.	16b/	.	16ff#\LL	.	.	.	.	2e\	vi-	.	.	.	.	.	.	.	4e\	.	4e\	.	.	.	.
.	.	.	.	16b/	.	16ee\	.	.	.	.	.	.	.	.	.	.	.	.	.	.	.	.	.	.	.	.
8G\J	.	.	.	16b/	.	16dd#\	.	.	.	.	.	.	.	.	.	.	.	.	.	.	.	.	.	.	.	.
.	.	.	.	16b/JJ	.	16ee\JJ	.	.	.	.	.	.	.	.	.	.	.	.	.	.	.	.	.	.	.	.
*Xtremolo	*	*	*	*	*	*	*	*	*	*	*	*	*	*	*	*	*	*	*	*	*	*	*	*	*	*
8G#X\L	.	8g#X\L	.	16b 16e/LL	.	16ee\LL	.	4G#X\	vi-	.	.	.	.	.	.	.	4dd\)	.	.	4e\	.	4e\	.	4b\	4dd\	.
.	.	.	.	16b 16e/	.	16ddn\	.	.	.	.	.	.	.	.	.	.	.	.	.	.	.	.	.	.	.	.
8G#\J	.	8g#\J	.	16b 16e/	.	16cc#\	.	.	.	.	.	.	.	.	.	.	.	.	.	.	.	.	.	.	.	.
.	.	.	.	16b 16e/JJ	.	16dd\JJ	.	.	.	.	.	.	.	.	.	.	.	.	.	.	.	.	.	.	.	.
!	!	!	!	!	!	!	!	!	!	!	!	!	!	!	!	!	!LO:LB:g=original	!	!	!	!	!	!	!	!	!
=77	=77	=77	=77	=77	=77	=77	=77	=77	=77	=77	=77	=77	=77	=77	=77	=77	=77	=77	=77	=77	=77	=77	=77	=77	=77	=77
8A\L	.	8A/L	.	16a/LL	.	8cc#\L	.	8A\	-tam	.	2e\	-tam	.	2a\	-tam	.	8cc#\	-tam	.	4A/	.	4e\	.	2.a/	8cc#\L	.
.	.	.	.	16a/	.	.	.	.	.	.	.	.	.	.	.	.	.	.	.	.	.	.	.	.	.	.
8B\	.	8B/	.	16a/	.	8dd\	.	8B\	ven-	.	.	.	.	.	.	.	8dd\	ven-	.	.	.	.	.	.	8dd\	.
.	.	.	.	16a/	.	.	.	.	.	.	.	.	.	.	.	.	.	.	.	.	.	.	.	.	.	.
8c#\	.	8c#/	.	16a/	.	8ee\	.	8c#\L	-tu-	.	.	.	.	.	.	.	8ee\L	-tu-	.	4r	.	4r	.	.	8ee\	.
.	.	.	.	16a/	.	.	.	.	.	.	.	.	.	.	.	.	.	.	.	.	.	.	.	.	.	.
8A\	.	8A/	.	16a/	.	8cc#\	.	8A\J	.	.	.	.	.	.	.	.	8cc#\J	.	.	.	.	.	.	.	8cc#\	.
.	.	.	.	16a/	.	.	.	.	.	.	.	.	.	.	.	.	.	.	.	.	.	.	.	.	.	.
8B\	.	8B/	.	16a/	.	8dd\	.	8B\L	-ri	.	8d\L	ven-	.	4a\	ven-	.	8dd\L	-ri	.	4r	.	4r	.	.	8dd\	.
.	.	.	.	16a/	.	.	.	.	.	.	.	.	.	.	.	.	.	.	.	.	.	.	.	.	.	.
8c#\J	.	8c#/J	.	16a/	.	8ee\J	.	8c#\J	.	.	8c#\J	.	.	.	.	.	8ee\J	.	.	.	.	.	.	.	8ee\J	.
.	.	.	.	16a/JJ	.	.	.	.	.	.	.	.	.	.	.	.	.	.	.	.	.	.	.	.	.	.
!	!	!	!	!	!	!	!	!	!	!	!	!	!	!	!	!	!	!	!	!	!	!LO:LB:g=original	!	!	!	!
=78	=78	=78	=78	=78	=78	=78	=78	=78	=78	=78	=78	=78	=78	=78	=78	=78	=78	=78	=78	=78	=78	=78	=78	=78	=78	=78
8D\L	.	8d\L	.	16dd 16d/LL	.	8ff#\L	.	8D\L	Sae-	.	2d\	-tu-	.	8f#\L	-tu-	.	4.dd\	Sae-	.	4d\	.	8f#\L	.	2.dd\	8ff#\L	.
.	.	.	.	16dd 16d/	.	.	.	.	.	.	.	.	.	.	.	.	.	.	.	.	.	.	.	.	.	.
8E\	.	8e\	.	16dd 16d/	.	8gg\	.	8E\J	.	.	.	.	.	8g\J	.	.	.	.	.	.	.	8g\	.	.	8gg\	.
.	.	.	.	16dd 16d/	.	.	.	.	.	.	.	.	.	.	.	.	.	.	.	.	.	.	.	.	.	.
*	*	*	*	*	*	*	*	*	*	*	*	*	*	*	*	*	*	*	*	*tremolo	*	*	*	*	*	*
8F#\	.	8f#\	.	16dd 16d/	.	8aa\	.	8F#\L	.	.	.	.	.	8a\L	-ri	.	.	.	.	8d\L	.	8a\	.	.	8aa\	.
.	.	.	.	16dd 16d/	.	.	.	.	.	.	.	.	.	.	.	.	.	.	.	.	.	.	.	.	.	.
8D\	.	8d\	.	16dd 16d/	.	8ff#\	.	8D\J	.	.	.	.	.	8f#\J	.	.	8dd\	-cu-	.	8d\	.	8f#\	.	.	8ff#\	.
.	.	.	.	16dd 16d/	.	.	.	.	.	.	.	.	.	.	.	.	.	.	.	.	.	.	.	.	.	.
8E\	.	8e\	.	16dd 16d/	.	8gg\	.	8E\	-cu-	.	4d\	-ri	.	8g\	sae-	.	4dd\	-li	.	8d\	.	8g\	.	.	8gg\	.
.	.	.	.	16dd 16d/	.	.	.	.	.	.	.	.	.	.	.	.	.	.	.	.	.	.	.	.	.	.
!LO:TX:b:t=Cito Verte	!	!	!	!	!	!	!	!	!	!	!	!	!	!	!	!	!	!	!	!	!	!	!	!	!	!
8F#\J	.	8f#\J	.	16dd 16d/	.	8aa\J	.	8F#\	-li	.	.	.	.	8a\	-cu-	.	.	.	.	8d\J	.	8a\J	.	.	8aa\J	.
.	.	.	.	16dd 16d/JJ	.	.	.	.	.	.	.	.	.	.	.	.	.	.	.	.	.	.	.	.	.	.
*	*	*	*	*	*	*	*	*	*	*	*	*	*	*	*	*	*	*	*	*Xtremolo	*	*	*	*	*	*
!LO:PB:g=original	!	!LO:LB:g=original	!	!	!	!LO:LB:g=original	!	!	!	!	!	!	!	!	!	!	!	!	!	!LO:LB:g=original	!	!	!	!LO:LB:g=original	!	!
=79	=79	=79	=79	=79	=79	=79	=79	=79	=79	=79	=79	=79	=79	=79	=79	=79	=79	=79	=79	=79	=79	=79	=79	=79	=79	=79
*tremolo	*	*tremolo	*	*	*	*	*	*	*	*	*	*	*	*	*	*	*	*	*	*	*	*	*	*	*	*
8Gn\L	.	8g\L	.	16ddLL 16d/	.	4bb\	.	2G\	a-	.	2d\	Sae-	.	2b\	-li	.	2dd\	A-	.	4d\	.	4d\	.	4dd\	4bb\	.
.	.	.	.	16dd 16d/	.	.	.	.	.	.	.	.	.	.	.	.	.	.	.	.	.	.	.	.	.	.
8G\	.	8g\	.	16dd 16d/	.	.	.	.	.	.	.	.	.	.	.	.	.	.	.	.	.	.	.	.	.	.
.	.	.	.	16dd 16d/	.	.	.	.	.	.	.	.	.	.	.	.	.	.	.	.	.	.	.	.	.	.
.	.	.	.	.	.	8qccc#/	.	.	.	.	.	.	.	.	.	.	.	.	.	.	.	.	.	.	.	.
8G\	.	8g\	.	16dd 16d/	.	8bb\L	.	.	.	.	.	.	.	.	.	.	.	.	.	4r	.	4r	.	4r	4r	.
.	.	.	.	16dd 16d/	.	.	.	.	.	.	.	.	.	.	.	.	.	.	.	.	.	.	.	.	.	.
8G\J	.	8g\J	.	16dd 16d/	.	16aa\L	.	.	.	.	.	.	.	.	.	.	.	.	.	.	.	.	.	.	.	.
*Xtremolo	*	*Xtremolo	*	*	*	*	*	*	*	*	*	*	*	*	*	*	*	*	*	*	*	*	*	*	*	*
.	.	.	.	16ddJJ 16d/	.	16bb\JJ	.	.	.	.	.	.	.	.	.	.	.	.	.	.	.	.	.	.	.	.
!	!	!	!	!	!	!	!	!	!	!	!	!	!	!	!	!	!	!	!	!	!	!LO:TX:a:t=d:note=korekta	!	!	!	!
.	.	.	.	.	.	8qddd/	.	.	.	.	.	.	.	.	.	.	.	.	.	.	.	.	.	.	.	.
8E\L	.	8a\L	.	16ggLL 16a\	.	8ccc#\L	.	4E\	-men	.	8A\	-cu-	.	4g\	a-	.	4cc#\	.	.	4A/	.	4e\	.	4cc#\	4gg\	.
.	.	.	.	16gg 16a\	.	.	.	.	.	.	.	.	.	.	.	.	.	.	.	.	.	.	.	.	.	.
8E\J	.	8a\J	.	16gg 16a\	.	16bb\L	.	.	.	.	8A\	-li	.	.	.	.	.	.	.	.	.	.	.	.	.	.
.	.	.	.	16ggJJ 16a\	.	16ccc#\JJ	.	.	.	.	.	.	.	.	.	.	.	.	.	.	.	.	.	.	.	.
!	!	!	!	!	!	!	!	!	!	!	!	!	!	!LO:LB:g=original	!	!	!	!	!	!	!	!	!	!	!	!
=80	=80	=80	=80	=80	=80	=80	=80	=80	=80	=80	=80	=80	=80	=80	=80	=80	=80	=80	=80	=80	=80	=80	=80	=80	=80	=80
*	*	*	*	*	*	*tremolo	*	*	*ij	*	*	*	*	*	*	*	*	*	*	*	*	*	*	*	*	*
16D\LL	.	16d\LL	.	16ff#\LL	.	16ddd 16ff#\LL	.	2D\	a-	.	2.A\	A-	.	4f#\	-men	.	4dd\	-men	.	8d\L	.	8f#\L	.	2.dd\	2.ff#\	.
16E\	.	16e\	.	16ff#\	.	16ddd 16ff#\	.	.	.	.	.	.	.	.	.	.	.	.	.	.	.	.	.	.	.	.
16F#\	.	16f#\	.	16ff#\	.	16ddd 16ff#\	.	.	.	.	.	.	.	.	.	.	.	.	.	8d\J	.	8f#\J	.	.	.	.
16E\JJ	.	16e\JJ	.	16ff#\	.	16ddd 16ff#\	.	.	.	.	.	.	.	.	.	.	.	.	.	.	.	.	.	.	.	.
*	*	*	*	*	*	*	*	*	*	*	*	*	*	*	*	*	*	*ij	*	*	*	*	*	*	*	*
8D\L	.	8d\L	.	16ff#\	.	16ddd 16ff#\	.	.	.	.	.	.	.	4f#\	a-	.	4dd\	A-	.	4d\	.	4f#\	.	.	.	.
.	.	.	.	16ff#\	.	16ddd 16ff#\	.	.	.	.	.	.	.	.	.	.	.	.	.	.	.	.	.	.	.	.
8D\	.	8d\	.	16ff#\	.	16ddd 16ff#\	.	.	.	.	.	.	.	.	.	.	.	.	.	.	.	.	.	.	.	.
.	.	.	.	16ff#\	.	16ddd 16ff#\	.	.	.	.	.	.	.	.	.	.	.	.	.	.	.	.	.	.	.	.
8d\	.	(8dd\	.	16ff#\	.	16ddd 16ff#\	.	4C#/	-men	.	.	.	.	4f#\	-men	.	4dd\	-men	.	4r	.	4r	.	.	.	.
*	*	*	*	*	*	*	*	*	*Xij	*	*	*	*	*	*	*	*	*Xij	*	*	*	*	*	*	*	*
.	.	.	.	16ff#\	.	16ddd 16ff#\	.	.	.	.	.	.	.	.	.	.	.	.	.	.	.	.	.	.	.	.
8c#\J	.	8cc#\J)	.	16ff#\	.	16ddd 16ff#\	.	.	.	.	.	.	.	.	.	.	.	.	.	.	.	.	.	.	.	.
.	.	.	.	16ff#\JJ	.	16ddd 16ff#\JJ	.	.	.	.	.	.	.	.	.	.	.	.	.	.	.	.	.	.	.	.
!	!	!	!	!	!	!	!	!LO:LB:g=original	!	!	!	!	!	!	!	!	!	!	!	!	!	!	!	!	!	!
=81	=81	=81	=81	=81	=81	=81	=81	=81	=81	=81	=81	=81	=81	=81	=81	=81	=81	=81	=81	=81	=81	=81	=81	=81	=81	=81
16B\LL	.	16b\LL	.	16ff#\LL	.	16ddd 16ff#\LL	.	(4BB/	a-	.	2.B\	-men	.	2.f#\	a-	.	2.dd\	a-	.	4d\	.	4f#\	.	2.dd\	2.ff#\	.
16c#\	.	16cc#\	.	16ff#\	.	16ddd 16ff#\	.	.	.	.	.	.	.	.	.	.	.	.	.	.	.	.	.	.	.	.
16d\	.	16dd\	.	16ff#\	.	16ddd 16ff#\	.	.	.	.	.	.	.	.	.	.	.	.	.	.	.	.	.	.	.	.
16c#\JJ	.	16cc#\JJ	.	16ff#\	.	16ddd 16ff#\	.	.	.	.	.	.	.	.	.	.	.	.	.	.	.	.	.	.	.	.
!LO:TX:t=P:problem:mixed beam	!	!	!	!	!	!	!	!	!	!	!	!	!	!	!	!	!	!	!	!	!	!	!	!	!	!
8B\L	.	8b\L	.	16ff#\	.	16ddd 16ff#\	.	4B\)	.	.	.	.	.	.	.	.	.	.	.	4d\	.	4f#\	.	.	.	.
.	.	.	.	16ff#\	.	16ddd 16ff#\	.	.	.	.	.	.	.	.	.	.	.	.	.	.	.	.	.	.	.	.
8BB/	.	8b\	.	16ff#\	.	16ddd 16ff#\	.	.	.	.	.	.	.	.	.	.	.	.	.	.	.	.	.	.	.	.
.	.	.	.	16ff#\	.	16ddd 16ff#\	.	.	.	.	.	.	.	.	.	.	.	.	.	.	.	.	.	.	.	.
8B\	.	8a\	.	16ff#\	.	16ddd 16ff#\	.	4A\	-men	.	.	.	.	.	.	.	.	.	.	4r	.	4r	.	.	.	.
.	.	.	.	16ff#\	.	16ddd 16ff#\	.	.	.	.	.	.	.	.	.	.	.	.	.	.	.	.	.	.	.	.
8A\J	.	8g\J	.	16ff#\	.	16ddd 16ff#\	.	.	.	.	.	.	.	.	.	.	.	.	.	.	.	.	.	.	.	.
.	.	.	.	16ff#\JJ	.	16ddd 16ff#\JJ	.	.	.	.	.	.	.	.	.	.	.	.	.	.	.	.	.	.	.	.
!	!	!	!	!LO:LB:g=original	!	!	!	!	!	!	!	!	!	!	!	!	!	!	!	!	!	!	!	!	!	!
=82	=82	=82	=82	=82	=82	=82	=82	=82	=82	=82	=82	=82	=82	=82	=82	=82	=82	=82	=82	=82	=82	=82	=82	=82	=82	=82
!LO:TX:t=P:problem:mixed beam	!	!	!	!	!	!	!	!	!	!	!	!	!	!	!	!	!	!	!	!	!	!	!	!	!	!
8G\L	.	8b\L	.	16ee\LL	.	16ddd 16ee\LL	.	4G\	a-	.	4B\	a-	.	2.e\	.	.	(2dd\	.	.	4e\	.	4e\	.	2dd\	2.ee\	.
.	.	.	.	16ee\	.	16ddd 16ee\	.	.	.	.	.	.	.	.	.	.	.	.	.	.	.	.	.	.	.	.
8G\	.	8b\J	.	16ee\	.	16ddd 16ee\	.	.	.	.	.	.	.	.	.	.	.	.	.	.	.	.	.	.	.	.
.	.	.	.	16ee\	.	16ddd 16ee\	.	.	.	.	.	.	.	.	.	.	.	.	.	.	.	.	.	.	.	.
*	*	*tremolo	*	*	*	*	*	*	*	*	*	*	*	*	*	*	*	*	*	*	*	*	*	*	*	*
8A\	.	8a\L	.	16ee\	.	16ddd 16ee\	.	4A\	.	.	2A\	.	.	.	.	.	.	.	.	4e\	.	4e\	.	.	.	.
.	.	.	.	16ee\	.	16ddd 16ee\	.	.	.	.	.	.	.	.	.	.	.	.	.	.	.	.	.	.	.	.
8A\	.	8a\	.	16ee\	.	16ddd 16ee\	.	.	.	.	.	.	.	.	.	.	.	.	.	.	.	.	.	.	.	.
.	.	.	.	16ee\	.	16ddd 16ee\JJ	.	.	.	.	.	.	.	.	.	.	.	.	.	.	.	.	.	.	.	.
8AA/	.	8a\	.	16ee\	.	16ccc# 16ee\LL	.	4AA/	.	.	.	.	.	.	.	.	4cc#\)	.	.	4A/	.	4e\	.	4cc#\	.	.
.	.	.	.	16ee\	.	16ccc# 16ee\	.	.	.	.	.	.	.	.	.	.	.	.	.	.	.	.	.	.	.	.
8AA/J	.	8a\J	.	16ee\	.	16ccc# 16ee\	.	.	.	.	.	.	.	.	.	.	.	.	.	.	.	.	.	.	.	.
.	.	.	.	16ee\JJ	.	16ccc# 16ee\JJ	.	.	.	.	.	.	.	.	.	.	.	.	.	.	.	.	.	.	.	.
*	*	*	*	*	*	*Xtremolo	*	*	*	*	*	*	*	*	*	*	*	*	*	*	*	*	*	*	*	*
*	*	*	*	*Xtremolo	*	*	*	*	*	*	*	*	*	*	*	*	*	*	*	*	*	*	*	*	*	*
*	*	*Xtremolo	*	*	*	*	*	*	*	*	*	*	*	*	*	*	*	*	*	*	*	*	*	*	*	*
=83	=83	=83	=83	=83	=83	=83	=83	=83	=83	=83	=83	=83	=83	=83	=83	=83	=83	=83	=83	=83	=83	=83	=83	=83	=83	=83
4D\	.	4a\	.	4ff# 4a/	.	4ddd 4ff#\	.	4D/	-men	.	4A\	-men	.	4f#\	-men	.	4dd\	-men	.	4d\	.	4f#\	.	4dd\	4ff#\	.
!LO:TX:t=P:problem:dźwięk B niepotrzebny	!	!	!	!	!	!	!	!	!	!	!	!	!	!	!	!	!	!	!	!	!	!	!	!	!	!
!LO:TX:b:i:t=pleno.	!	!	!	!	!	!	!	!	!	!	!	!	!	!	!	!	!	!	!	!	!	!	!	!	!	!
4d 4B\	.	4d\	.	4ff# 4a/	.	4ddd 4ff#\	.	4d\	a-	.	2A\	A-	.	(4f#\	a-	.	(4dd\	a-	.	4d\	.	4f#\	.	4dd\	4ff#\	.
4A\	.	4a\	.	4ee 4a/	.	4ccc# 4ee\	.	4A\	.	.	.	.	.	4e\)	.	.	4cc#\)	.	.	4A/	.	4e\	.	4cc#\	4ee\	.
=84	=84	=84	=84	=84	=84	=84	=84	=84	=84	=84	=84	=84	=84	=84	=84	=84	=84	=84	=84	=84	=84	=84	=84	=84	=84	=84
4d\	.	4a 4d\	.	4ff# 4a/	.	4ddd 4ff#\	.	4D/	-men.	.	4A\	-men.	.	4f#\	-men.	.	4dd\	-men.	.	4F#/	.	4d\	.	4dd\	4ff#\	.
4D/	.	4a 4d\	.	4a 4f#/	.	4ff# 4a 4d/	.	4r	.	.	4r	.	.	4r	.	.	4r	.	.	4F#/	.	4d\	.	4dd\	4ff#\	.
4D/	.	4a 4d\	.	4a 4f#/	.	4ff# 4a 4d/	.	4r	.	.	4r	.	.	4r	.	.	4r	.	.	4F#/	.	4d\	.	4ff#\	4aa\	.
!	!	!LO:LB:g=original	!	!	!	!	!	!	!	!	!	!	!	!	!	!	!	!	!	!	!	!	!	!	!	!
=85	=85	=85	=85	=85	=85	=85	=85	=85	=85	=85	=85	=85	=85	=85	=85	=85	=85	=85	=85	=85	=85	=85	=85	=85	=85	=85
!	!	!	!	!	!	!	!	!	!	!	!	!	!	!	!	!	!	!	!	!	!	!LO:N:vis=2	!	!	!	!
2D\	.	2a 2d\	.	2a 2f#/	.	2.ff# 2.a 2.d/	.	2.r	.	.	2.r	.	.	2.r	.	.	2.r	.	.	2F#/	.	4d\	.	2dd\	2ff#\	.
.	.	.	.	.	.	.	.	.	.	.	.	.	.	.	.	.	.	.	.	.	.	4r	.	.	.	.
4r	.	4r	.	4r	.	.	.	.	.	.	.	.	.	.	.	.	.	.	.	4r	.	4r	.	4r	4r	.
==	==	==	==	==	==	==	==	==	==	==	==	==	==	==	==	==	==	==	==	==	==	==	==	==	==	==
*-	*-	*-	*-	*-	*-	*-	*-	*-	*-	*-	*-	*-	*-	*-	*-	*-	*-	*-	*-	*-	*-	*-	*-	*-	*-	*-
!!!system-decoration: [(g1)][(g2)][(g3)][(g4)]s12
!!!ENC: Andrzej Borzym
!!!END: 2020-09-25
!!!AIN: 1 alto 1 bass 2 cor 2 oboe 1 organ 1 soprn 1 tenor 1 viola 2 violn
!!!ENC: Kamil Watkowski
!!!END: 2022-02-09
!!!RDF**kern: > = above
!!!RDF**kern: < = below
!!!RDF**kern: | = vertical stroke
